!!!!SEGMENT: pl-cz--iii-111--002_dankowski-adalbert--vesperae-d-laudate-pueri.krn
!!!cenid: 18xx:791
!!!COM: Dankowski, Adalbert
!!!COM-rismid: pe30000793
!!!CDT: ~1760-~1836
!!!CNT: Polish
!!!OPR: Vesperae D
!!!OTL: Laudate pueri
!!!OMV: 002
!!!PDT:
!!!AGN: Sacred; Vespers
!!!SMS-siglum: PL-CZ
!!!SMS-shelfmark: III-111
!!!SMS-shelfwork: 001-002 M
!!!SMS-variant:
!!!SMS-altvar:
!!!NIFC-rismid: 300033580
!!!URL-scan: http://repozytorium.nifc.pl/skany/pl-cz-nut--iii-111
!!!ONB-nifc: UWAGA: części Vesperae: Dixit Dominus, Laudate pueri, Laetatus sum, Nisi Dominus, Lauda Jerusalem, Magnificat, Et misericordia, Gloria patri
!!!key: G
**kern	**fba	**dynam	**kern	**dynam	**kern	**dynam	**kern	**text	**kern	**text	**kern	**text	**kern	**text	**kern	**kern
*group4	*	*	*group3	*	*group3	*	*group2	*	*group2	*	*group2	*	*group2	*	*group1	*group1
*part9	*	*part9	*part8	*part8	*part7	*part7	*part6	*part6	*part5	*part5	*part4	*part4	*part3	*part3	*part2	*part1
*staff9	*	*	*staff8	*	*staff7	*	*staff6	*staff6	*staff5	*staff5	*staff4	*staff4	*staff3	*staff3	*staff2	*staff1
*I"Organo	*	*	*I"Violino Secondo	*	*I"Violino Primo	*	*I"Baſso	*	*I"Tenore	*	*I"Alto	*	*I"Canto	*	*I"Cornu Secondo Ex D.	*I"Cornu Primo Ex D:
*I'[Org]	*	*	*I'[Vl 2]	*	*I'[Vl 1]	*	*I'[B]	*	*I'[T]	*	*I'[A]	*	*I'[S]	*	*I'[Cor 2 in D]	*I'[Cor 1 in D]
*Iorgan	*	*	*Ivioln	*	*Ivioln	*	*Ibass	*	*Itenor	*	*Ialto	*	*	*	*Icor	*Icor
*ICklav	*	*	*ICstr	*	*ICstr	*	*ICvox	*	*ICvox	*	*ICvox	*	*	*	*ICbras	*ICbras
*IGcont	*	*	*IGacmp	*	*IGacmp	*	*IGcoro	*	*IGcoro	*	*IGcoro	*	*	*	*IGacmp	*IGacmp
*clefF4	*	*	*clefG2	*	*clefG2	*	*clefF4	*	*clefC4	*	*clefC3	*	*clefC1	*	*clefG2	*clefG2
*	*	*	*	*	*	*	*	*	*	*	*	*	*	*	*ITrd6c10	*ITrd6c10
*k[f#]	*	*	*k[f#]	*	*k[f#]	*	*k[f#]	*	*k[f#]	*	*k[f#]	*	*k[f#]	*	*k[f#]	*k[f#]
*G:	*	*	*G:	*	*G:	*	*G:	*	*G:	*	*G:	*	*G:	*	*G:	*G:
*M3/4	*	*	*M3/4	*	*M3/4	*	*M3/4	*	*M3/4	*	*M3/4	*	*M3/4	*	*M3/4	*M3/4
=1	=1	=1	=1	=1	=1	=1	=1	=1	=1	=1	=1	=1	=1	=1	=1	=1
*	*	*	*	*	*2\right	*	*	*	*	*	*	*	*	*	*	*
!	!	!	!	!	!	!	!	!	!LO:TX:b:t=25:color=gray	!	!	!	!	!	!	!LO:TX:a:t=Laudate Tacet
!LO:TX:a:B:t=Moderatto	!	!	!LO:TX:a:B:t=moderatto	!	!LO:TX:a:B:t=moderatto	!	!LO:TX:a:B:t=moder&colon;	!	!LO:TX:a:B:t=moder&colon;	!	!LO:TX:a:B:t=moder	!	!LO:TX:a:B:t=moder	!	!LO:TX:a:t=Laudate Tacet	!
8GG/L	.	.	8d/L	.	2b\	.	4G\	Lau-	0.r	.	0.r	.	0.r	.	2.ryy	2.ryy
8GG/	.	.	8d/	.	.	.	.	.	.	.	.	.	.	.	.	.
8BB/	.	.	8d/	.	.	.	4G\	-da-	.	.	.	.	.	.	.	.
8BB/	.	.	8d/	.	.	.	.	.	.	.	.	.	.	.	.	.
.	.	.	.	.	8qdd/	.	.	.	.	.	.	.	.	.	.	.
!	!	!	!	!	!	!	!LO:TX:a:i:t=Solo&colon;	!	!	!	!	!	!	!	!	!
8D/	.	.	8d/	.	8cc\L	.	4G\	-te	.	.	.	.	.	.	.	.
8D/J	.	.	8d/J	.	16b\L	.	.	.	.	.	.	.	.	.	.	.
.	.	.	.	.	16cc\JJ	.	.	.	.	.	.	.	.	.	.	.
=2	=2	=2	=2	=2	=2	=2	=2	=2	=2-	=2	=2-	=2	=2-	=2	=2	=2
!	!	!	!	!LO:DY:a:rj:t=p&colon;	!	!LO:DY:a:rj:t=pia	!	!	!	!	!	!	!	!	!	!
4G\	.	.	4.b/	p	8dd\L	p	8.B\	pu-	.	.	.	.	.	.	2.ryy	2.ryy
.	.	.	.	.	8ee\J	.	.	.	.	.	.	.	.	.	.	.
.	.	.	.	.	.	.	16c\	-e-	.	.	.	.	.	.	.	.
4GG/	.	.	.	.	8dd\L	.	4B\	-ri	.	.	.	.	.	.	.	.
.	.	.	16g/LL	.	16b\L	.	.	.	.	.	.	.	.	.	.	.
.	.	.	16a/JJ	.	16cc\JJ	.	.	.	.	.	.	.	.	.	.	.
4r	.	.	8b/L	.	16dd\LL	.	4r	.	.	.	.	.	.	.	.	.
.	.	.	.	.	16ee\	.	.	.	.	.	.	.	.	.	.	.
.	.	.	8b/J	.	16ff#\	.	.	.	.	.	.	.	.	.	.	.
.	.	.	.	.	16gg\JJ	.	.	.	.	.	.	.	.	.	.	.
=3	=3	=3	=3	=3	=3	=3	=3	=3	=3-	=3	=3-	=3	=3-	=3	=3	=3
4E\	.	.	4g/	.	8dd\L	.	8B\L	lau-	.	.	.	.	.	.	2.ryy	2.ryy
.	.	.	.	.	8b\	.	8G\J	.	.	.	.	.	.	.	.	.
4C/	6	.	4e/	.	8ee\	.	8c\L	-da-	.	.	.	.	.	.	.	.
.	.	.	.	.	8cc\	.	8A\J	.	.	.	.	.	.	.	.	.
4D\	.	.	4d/	.	8b\	.	8G\L	-te	.	.	.	.	.	.	.	.
.	.	.	.	.	8a\J	.	8F#\J	.	.	.	.	.	.	.	.	.
=4	=4	=4	=4	=4	=4	=4	=4	=4	=4-	=4	=4-	=4	=4-	=4	=4	=4
4GG/	.	.	4d/	.	4b\	.	8G\	Do-	.	.	.	.	.	.	2.ryy	2.ryy
.	.	.	.	.	.	.	8G\	-mi-	.	.	.	.	.	.	.	.
8r	.	.	8r	.	8r	.	4G\	-num	.	.	.	.	.	.	.	.
8G\L	.	.	8d/L	.	8b\L	.	.	.	.	.	.	.	.	.	.	.
8G\	.	.	8d/	.	8b\	.	8r	.	.	.	.	.	.	.	.	.
8G\J	.	.	8d/J	.	8b\J	.	8G\	lau-	.	.	.	.	.	.	.	.
!	!	!	!	!	!	!	!LO:LB:g=original	!	!	!	!	!	!	!	!	!
=5	=5	=5	=5	=5	=5	=5	=5	=5	=5-	=5	=5-	=5	=5-	=5	=5	=5
4D\	.	.	4f#/	.	4a/	.	8F#\L	-da-	0.r	.	0.r	.	0.r	.	2.ryy	2.ryy
.	.	.	.	.	.	.	8A\J	.	.	.	.	.	.	.	.	.
8r	.	.	8r	.	8r	.	4D\	-te	.	.	.	.	.	.	.	.
8D\L	.	.	8f#/L	.	8a/L	.	.	.	.	.	.	.	.	.	.	.
8D\	.	.	8f#/	.	8a/	.	8r	.	.	.	.	.	.	.	.	.
8D\J	.	.	8f#/J	.	8a/J	.	8F#\	lau-	.	.	.	.	.	.	.	.
!LO:LB:g=original	!	!	!	!	!LO:LB:g=original	!	!	!	!	!	!	!	!	!	!	!
=6	=6	=6	=6	=6	=6	=6	=6	=6	=6-	=6	=6-	=6	=6-	=6	=6	=6
4G\	.	.	4g/	.	4b\	.	8G\L	-da-	.	.	.	.	.	.	2.ryy	2.ryy
.	.	.	.	.	.	.	8B\J	.	.	.	.	.	.	.	.	.
!	!	!	!LO:LB:g=original	!	!	!	!	!	!	!	!	!	!	!	!	!
8r	.	.	8r	.	8r	.	4D\	-te	.	.	.	.	.	.	.	.
8G\L	.	.	8d/L	.	8b\L	.	.	.	.	.	.	.	.	.	.	.
8G\	.	.	8d/	.	8b\	.	8r	.	.	.	.	.	.	.	.	.
*	*	*	*	*	*	*	*	*ij	*	*	*	*	*	*	*	*
8G\J	.	.	8d/J	.	8b\J	.	8G\	lau-	.	.	.	.	.	.	.	.
=7	=7	=7	=7	=7	=7	=7	=7	=7	=7-	=7	=7-	=7	=7-	=7	=7	=7
8C/L	6:	.	8e/L	.	16cc\LL	.	16A\LL	-da-	.	.	.	.	.	.	2.ryy	2.ryy
.	.	.	.	.	16b\	.	16G\JJ	.	.	.	.	.	.	.	.	.
8C/	.	.	8e/	.	16cc\	.	16A\LL	-te	.	.	.	.	.	.	.	.
.	.	.	.	.	16dd\JJ	.	16B\JJ	.	.	.	.	.	.	.	.	.
*	*	*	*	*	*	*	*	*Xij	*	*	*	*	*	*	*	*
8C/	.	.	8e/	.	4cc\	.	4A\	No-	.	.	.	.	.	.	.	.
8C/	.	.	8e/	.	.	.	.	.	.	.	.	.	.	.	.	.
8C#X/	5	.	8e/	.	4b\	.	4G\	-men	.	.	.	.	.	.	.	.
8C#/J	.	.	8e/J	.	.	.	.	.	.	.	.	.	.	.	.	.
=8	=8	=8	=8	=8	=8	=8	=8	=8	=8-	=8	=8-	=8	=8-	=8	=8	=8
8D/L	4	.	4d/	.	8b\L	.	8G\	Do-	.	.	.	.	.	.	2.ryy	2.ryy
16D/L	.	.	.	.	16a\L	.	8G\	-mi-	.	.	.	.	.	.	.	.
16C/JJ	.	.	.	.	16b\JJ	.	.	.	.	.	.	.	.	.	.	.
8D/L	3	.	4d/	.	4a/	.	4F#\	-ni	.	.	.	.	.	.	.	.
8Cn/	.	.	.	.	.	.	.	.	.	.	.	.	.	.	.	.
8BB/	.	.	4r	.	4r	.	4r	.	.	.	.	.	.	.	.	.
8AA/J	.	.	.	.	.	.	.	.	.	.	.	.	.	.	.	.
=9	=9	=9	=9	=9	=9	=9	=9	=9	=9-	=9	=9	=9	=9	=9	=9	=9
!	!	!	!	!	!	!	!	!	!	!	!LO:TX:a:i:t=Solo	!	!LO:TX:a:i:t=Solo	!	!	!
4GG/	.	.	4b/	.	4dd\	.	0.r	.	0.r	.	4b\	ſit	4dd\	ſit	2.ryy	2.ryy
4G\	.	.	4b/	.	4dd\	.	.	.	.	.	4b\	no-	4dd\	No-	.	.
4r	.	.	4b/	.	4dd\	.	.	.	.	.	4b\	-men	4dd\	-men	.	.
=10	=10	=10	=10	=10	=10	=10	=10-	=10	=10-	=10	=10	=10	=10	=10	=10	=10
*	*	*	*	*	*	*	*	*	*	*	*2\right	*	*2\right	*	*	*
8r	.	.	2a/	.	4.cc\	.	.	.	.	.	2a\	Do-	2cc\	Do-	2.ryy	2.ryy
16D\LL	.	.	.	.	.	.	.	.	.	.	.	.	.	.	.	.
16E\JJ	.	.	.	.	.	.	.	.	.	.	.	.	.	.	.	.
8F#\L	.	.	.	.	.	.	.	.	.	.	.	.	.	.	.	.
8G\	.	.	.	.	16b\LL	.	.	.	.	.	.	.	.	.	.	.
.	.	.	.	.	16cc\JJ	.	.	.	.	.	.	.	.	.	.	.
8A\	.	.	8b/L	.	8dd\L	.	.	.	.	.	8b\L	-mi-	8dd\L	-mi-	.	.
8F#\J	.	.	8a/J	.	8cc\J	.	.	.	.	.	8a\J	.	8cc\J	.	.	.
!LO:LB:g=original	!	!	!	!	!	!	!	!	!	!	!	!	!	!	!	!
=11	=11	=11	=11	=11	=11	=11	=11-	=11	=11-	=11	=11	=11	=11	=11	=11	=11
4G\	.	.	4g/	.	4b\	.	.	.	.	.	4g\	-ni	4b\	-ni	2.ryy	2.ryy
4GG/	.	.	4b/	.	4dd\	.	.	.	.	.	4b\	Be-	4dd\	be-	.	.
4r	.	.	4b/	.	4dd\	.	.	.	.	.	4b\	-ne-	4dd\	-ne-	.	.
=12	=12	=12	=12	=12	=12	=12	=12-	=12	=12-	=12	=12	=12	=12	=12	=12	=12
8r	.	.	2a/	.	4.cc\	.	.	.	.	.	2a\	-dic-	2cc\	-dic-	2.ryy	2.ryy
16D\LL	.	.	.	.	.	.	.	.	.	.	.	.	.	.	.	.
16E\JJ	.	.	.	.	.	.	.	.	.	.	.	.	.	.	.	.
8F#\L	.	.	.	.	.	.	.	.	.	.	.	.	.	.	.	.
8G\	.	.	.	.	16b\LL	.	.	.	.	.	.	.	.	.	.	.
.	.	.	.	.	16cc\JJ	.	.	.	.	.	.	.	.	.	.	.
!	!	!	!	!	!LO:LB:g=original	!	!	!	!	!	!	!	!	!	!	!
8A\	.	.	8b/L	.	8dd\L	.	.	.	.	.	8b\L	.	8dd\L	.	.	.
8F#\J	.	.	8a/J	.	8cc\J	.	.	.	.	.	8a\J	.	8cc\J	.	.	.
!	!	!	!LO:LB:g=original	!	!	!	!	!	!	!	!	!	!	!	!	!
=13	=13	=13	=13	=13	=13	=13	=13-	=13	=13-	=13	=13	=13	=13	=13	=13	=13
4G\	.	.	4g/	.	4b\	.	0.r	.	0.r	.	4g\	-tum	4b\	-tum	2.ryy	2.ryy
!	!	!	!	!	!	!	!	!	!	!	!LO:LB:g=original	!	!	!	!	!
!	!	!	!	!	!	!	!	!	!	!	!	!	!LO:SIC:v:s:t=4dd\	!	!	!
4GG/	.	.	4b\	.	4dd\	.	.	.	.	.	4b\	et	4cc\	et	.	.
4r	.	.	4b\	.	4dd\	.	.	.	.	.	4b\	hoc	4dd\	hoc	.	.
!	!	!	!	!	!	!	!	!	!	!	!	!	!LO:LB:g=original	!	!	!
=14	=14	=14	=14	=14	=14	=14	=14-	=14	=14-	=14	=14	=14	=14	=14	=14	=14
*	*	*	*2\right	*	*	*	*	*	*	*	*	*	*	*	*	*
8r	.	.	2cc\	.	2ee\	.	.	.	.	.	2cc\	nunc	2ee\	nunc	2.ryy	2.ryy
8c\L	3:	.	.	.	.	.	.	.	.	.	.	.	.	.	.	.
8B\	.	.	.	.	.	.	.	.	.	.	.	.	.	.	.	.
8A\	.	.	.	.	.	.	.	.	.	.	.	.	.	.	.	.
8G\	.	.	8b\L	.	8dd\L	.	.	.	.	.	8b\L	&	8dd\L	&	.	.
8F#\J	.	.	8cc\J	.	8ee\J	.	.	.	.	.	8cc\J	.	8ee\J	.	.	.
=15	=15	=15	=15	=15	=15	=15	=15-	=15	=15-	=15	=15	=15	=15	=15	=15	=15
4G\	.	.	4.b/	.	4.dd\	.	.	.	.	.	(>4.b\	us-	(>4.dd\	us-	2.ryy	2.ryy
4D\	3	.	.	.	.	.	.	.	.	.	.	.	.	.	.	.
.	.	.	8a/	.	8cc\	.	.	.	.	.	8a\)	.	8cc\)	.	.	.
4E\	.	.	4g/	.	4b\	.	.	.	.	.	4g\	-que	4b\	-que	.	.
=16	=16	=16	=16	=16	=16	=16	=16-	=16	=16-	=16	=16	=16	=16	=16	=16	=16
4C/	6	.	8cc/L	.	8ee\L	.	.	.	.	.	8cc\L	in	8ee\L	in	2.ryy	2.ryy
.	.	.	8a/J	.	8cc\J	.	.	.	.	.	8a\J	.	8cc\J	.	.	.
4D/	4	.	4g/	.	4b/	.	.	.	.	.	4g\	ſae-	4b\	ſae-	.	.
4DD/	3	.	4f#/	.	4a/	.	.	.	.	.	4f#\	-cu-	4a\	-cu-	.	.
!LO:LB:g=original	!	!	!	!	!	!	!	!	!	!	!	!	!	!	!	!
=17	=17	=17	=17	=17	=17	=17	=17-	=17	=17-	=17	=17	=17	=17	=17	=17	=17
8GG/L	.	.	4g/	.	4b/	.	0.r	.	0.r	.	4g\	-lum	4b\	-lum	2.ryy	2.ryy
8GG/	.	.	.	.	.	.	.	.	.	.	.	.	.	.	.	.
8BB/	.	.	4r	.	4r	.	.	.	.	.	4r	.	4r	.	.	.
8D/J	.	.	.	.	.	.	.	.	.	.	.	.	.	.	.	.
8G\	.	.	4g/	.	4b/	.	.	.	.	.	4g\	a	4b\	a	.	.
8r	.	.	.	.	.	.	.	.	.	.	.	.	.	.	.	.
=18	=18	=18	=18	=18	=18	=18	=18-	=18	=18-	=18	=18	=18	=18	=18	=18	=18
8D\L	8: 3:	.	2f#/	.	2a/	.	.	.	.	.	2f#\	ſo-	2a\	ſo-	2.ryy	2.ryy
8D\	.	.	.	.	.	.	.	.	.	.	.	.	.	.	.	.
8D\	.	.	.	.	.	.	.	.	.	.	.	.	.	.	.	.
8D\	.	.	.	.	.	.	.	.	.	.	.	.	.	.	.	.
8D\	.	.	4a/	.	8dd\L	.	.	.	.	.	4a\	-lis	8dd\L	-lis	.	.
8D\J	n7r: 5:	.	.	.	8cc\J	.	.	.	.	.	.	.	8cc\J	.	.	.
!	!	!	!	!	!	!	!	!	!	!	!LO:LB:g=original	!	!	!	!	!
=19	=19	=19	=19	=19	=19	=19	=19-	=19	=19-	=19	=19	=19	=19	=19	=19	=19
8G\L	.	.	4.a/	.	4.cc\	.	.	.	.	.	(>4.a\	or-	(>4.cc\	or-	2.ryy	2.ryy
8G\	.	.	.	.	.	.	.	.	.	.	.	.	.	.	.	.
8G\	.	.	.	.	.	.	.	.	.	.	.	.	.	.	.	.
!!mixed beam:problem
!LO:TX:t=P:problem:mixed beam	!	!	!	!	!	!	!	!	!	!	!	!	!	!	!	!
8G\	.	.	16b/LL	.	16dd\LL	.	.	.	.	.	16b\LL)	.	16dd\LL)	.	.	.
.	.	.	16a/JJ	.	16cc\JJ	.	.	.	.	.	16a\JJ	.	16cc\JJ	.	.	.
8GG/	5: 3:	.	4g/	.	4b\	.	.	.	.	.	4g\	-tu	4b\	-tu	.	.
8GG/J	.	.	.	.	.	.	.	.	.	.	.	.	.	.	.	.
!	!	!	!LO:LB:g=original	!	!LO:LB:g=original	!	!	!	!	!	!	!	!LO:LB:g=original	!	!	!
=20	=20	=20	=20	=20	=20	=20	=20-	=20	=20-	=20	=20	=20	=20	=20	=20	=20
8G\L	x 3:	.	8g/L	.	8b\L	.	.	.	.	.	8g\	us-	8b\	us-	2.ryy	2.ryy
8G\	.	.	8b/J	.	16cc#X\L	.	.	.	.	.	8g\	-que	16cc#X\LL	-que	.	.
.	.	.	.	.	16dd\JJ	.	.	.	.	.	.	.	16dd\JJ	.	.	.
8G\	6:	.	4g/	.	4ee\	.	.	.	.	.	4g\	ad	4ee\	ad	.	.
8G\	.	.	.	.	.	.	.	.	.	.	.	.	.	.	.	.
8G#X\	5	.	4f#/	.	4dd\	.	.	.	.	.	4f#\	oc-	4dd\	oc-	.	.
8G#\J	.	.	.	.	.	.	.	.	.	.	.	.	.	.	.	.
=21	=21	=21	=21	=21	=21	=21	=21-	=21	=21-	=21	=21	=21	=21	=21	=21	=21
4A\	4	.	8f#/L	.	8dd\L	.	0.r	.	0.r	.	4f#\	-ca-	4dd\	-ca-	2.ryy	2.ryy
.	.	.	16e/L	.	16cc#X\L	.	.	.	.	.	.	.	.	.	.	.
.	.	.	16f#/JJ	.	16dd\JJ	.	.	.	.	.	.	.	.	.	.	.
4AA/	#	.	4e/	.	4cc#\	.	.	.	.	.	4e\	-ſum	4cc#X\	-ſum	.	.
4r	.	.	4g/	.	4ee\	.	.	.	.	.	4g\	lau-	4ee\	lau-	.	.
!LO:LB:g=original	!	!	!	!	!	!	!	!	!	!	!	!	!	!	!	!
=22	=22	=22	=22	=22	=22	=22	=22-	=22	=22-	=22	=22	=22	=22	=22	=22	=22
8r	.	.	2f#/	.	2dd\	.	.	.	.	.	2f#\	-da-	2dd\	-da-	2.ryy	2.ryy
8d\L	x 3:	.	.	.	.	.	.	.	.	.	.	.	.	.	.	.
8c#X\	.	.	.	.	.	.	.	.	.	.	.	.	.	.	.	.
8B\	.	.	.	.	.	.	.	.	.	.	.	.	.	.	.	.
8A\	.	.	8g/L	.	8ee\L	.	.	.	.	.	8g\	-bi-	8ee\	-bi-	.	.
8G#X\J	.	.	8f#/J	.	8dd\J	.	.	.	.	.	8f#\	-le	8dd\	-le	.	.
=23	=23	=23	=23	=23	=23	=23	=23-	=23	=23-	=23	=23	=23	=23	=23	=23	=23
!!mixed beam:problem
!LO:TX:t=P:problem:mixed beam	!	!	!	!	!	!	!	!	!	!	!	!	!	!	!	!
8A\L	x #:	.	4.e/	.	4.cc#X\	.	.	.	.	.	2e\	No-	(>4.cc#X\	no-	2.ryy	2.ryy
8AA/	.	.	.	.	.	.	.	.	.	.	.	.	.	.	.	.
8A\	.	.	.	.	.	.	.	.	.	.	.	.	.	.	.	.
8Gn\	.	.	16d/LL	.	16b\LL	.	.	.	.	.	.	.	16b\LL)	.	.	.
.	.	.	16e/JJ	.	16cc#\JJ	.	.	.	.	.	.	.	16cc#\JJ	.	.	.
8F#\	6 x	.	4f#/	.	4dd\	.	.	.	.	.	4f#\	-men	4dd\	-men	.	.
8D\J	.	.	.	.	.	.	.	.	.	.	.	.	.	.	.	.
!	!	!	!	!	!	!	!	!	!	!	!	!	!LO:LB:g=original	!	!	!
=24	=24	=24	=24	=24	=24	=24	=24-	=24	=24-	=24	=24	=24	=24	=24	=24	=24
8G\L	6 x	.	8b/L	.	8gg\L	.	.	.	.	.	(>4g\	Do-	4ee\	Do-	2.ryy	2.ryy
8G\	.	.	16a/L	.	16ff#\L	.	.	.	.	.	.	.	.	.	.	.
.	.	.	16g/JJ	.	16ee\JJ	.	.	.	.	.	.	.	.	.	.	.
8A\	4 x	.	4f#/	.	4dd\	.	.	.	.	.	4f#\)	.	4dd\	.	.	.
!!mixed beam:problem
!LO:TX:t=P:problem:mixed beam	!	!	!	!	!	!	!	!	!	!	!	!	!	!	!	!
8A\	.	.	.	.	.	.	.	.	.	.	.	.	.	.	.	.
8AA/	# x	.	4e/	.	4cc#X\	.	.	.	.	.	4e\	-mi-	4cc#X\	-mi-	.	.
8AA/J	.	.	.	.	.	.	.	.	.	.	.	.	.	.	.	.
!	!	!	!	!	!	!	!	!	!	!	!	!	!LO:LB:g=original	!	!	!
=25	=25	=25	=25	=25	=25	=25	=25-	=25	=25-	=25	=25	=25	=25	=25	=25	=25
!!mixed beam:problem
!	!	!	!LO:TX:t=P:problem:mixed beam	!LO:HP:b	!	!LO:HP:b	!	!	!	!	!	!	!	!	!	!
4D\	.	.	8f#/L	<	8dd\L	<	2.r	.	2.r	.	4f#\	-ni	4dd\	-ni	2.ryy	2.ryy
!	!	!	!LO:TX:a:t=|:problem	!	!LO:TX:a:t=|:problem	!	!	!	!	!	!	!	!	!	!	!
.	.	.	8ff#\	.	8aa\	.	.	.	.	.	.	.	.	.	.	.
!	!	!	!LO:TX:a:t=|:problem	!	!LO:TX:a:t=|:problem	!	!	!	!	!	!	!	!	!	!	!
4r	.	.	8gg\	.	8bb\	.	.	.	.	.	4r	.	4r	.	.	.
!	!	!	!LO:TX:a:t=|:problem	!	!LO:TX:a:t=|:problem	!	!	!	!	!	!	!	!	!	!	!
.	.	.	8ff#\	.	8aa\	.	.	.	.	.	.	.	.	.	.	.
!	!	!	!LO:TX:a:t=|:problem	!	!LO:TX:a:t=|:problem	!	!	!	!	!	!	!	!	!	!	!
4r	.	.	8gg\	.	8bb\	.	.	.	.	.	4r	.	4r	.	.	.
!	!	!	!LO:TX:a:t=|:problem	!	!LO:TX:a:t=|:problem	!	!	!	!	!	!	!	!	!	!	!
.	.	.	8ee\J	[[	8ccc#X\J	[[	.	.	.	.	.	.	.	.	.	.
!	!	!	!LO:LB:g=original	!	!LO:LB:g=original	!	!LO:LB:g=original	!	!	!	!	!	!	!	!	!
=26	=26	=26	=26	=26	=26	=26	=26	=26	=26	=26	=26	=26	=26	=26	=26	=26
!LO:TX:a:i:t=tutti:rj	!	!	!	!LO:DY:a:rj:t=f&colon;	!	!LO:DY:b:t=for&colon;	!	!	!	!	!	!	!	!	!	!
4D\	.	.	4.d\ 4.a\ 4.ff#\	f	4.ddd\	f	4D\	Ex-	4d\	Ex-	4a\	Ex-	4ff#\	Ex-	2.ryy	2.ryy
4D\	.	.	.	.	.	.	4D\	-cel-	4d\	-cel-	4a\	-cel-	4ff#\	-cel-	.	.
.	.	.	16dd\LL	.	16ff#\LL	.	.	.	.	.	.	.	.	.	.	.
.	.	.	16ee\JJ	.	16gg\JJ	.	.	.	.	.	.	.	.	.	.	.
4D\	.	.	8ff#\L	.	8aa\L	.	4D\	-sus	4d\	-sus	4a\	-sus	4ff#\	-sus	.	.
.	.	.	8ff#\J	.	8aa\J	.	.	.	.	.	.	.	.	.	.	.
=27	=27	=27	=27	=27	=27	=27	=27	=27	=27	=27	=27	=27	=27	=27	=27	=27
4d\	4 x	.	8.gg\L	.	8.ddd\L	.	4D\	ſu-	4d\	ſu-	4b\	ſu-	4gg\	ſu-	2.ryy	2.ryy
.	.	.	32ff#\LL	.	32aa\LL	.	.	.	.	.	.	.	.	.	.	.
.	.	.	32gg\JJJ	.	32ddd\JJJ	.	.	.	.	.	.	.	.	.	.	.
4D\	x 3	.	8ff#\L	.	8aa\L	.	4D\	-per	4d\	-per	4a\	-per	4ff#\	-per	.	.
.	.	.	16ff#\L	.	16ddd\L	.	.	.	.	.	.	.	.	.	.	.
.	.	.	16aa\JJ	.	16ccc\JJ	.	.	.	.	.	.	.	.	.	.	.
4r	.	.	16gg\LL	.	16bb\LL	.	4r	.	4r	.	4r	.	4r	.	.	.
.	.	.	16ff#\	.	16aa\	.	.	.	.	.	.	.	.	.	.	.
.	.	.	16ee\	.	16gg\	.	.	.	.	.	.	.	.	.	.	.
.	.	.	16dd\JJ	.	16ff#\JJ	.	.	.	.	.	.	.	.	.	.	.
!LO:LB:g=original	!	!	!	!	!	!	!	!	!	!	!	!	!LO:PB:g=original	!	!	!
=28	=28	=28	=28	=28	=28	=28	=28	=28	=28	=28	=28	=28	=28	=28	=28	=28
4A\	# x	.	4.cc#X\	.	4.ee\	.	8A\	om-	8c#X\	om-	8g\	om-	8ee\	om-	2.ryy	2.ryy
.	.	.	.	.	.	.	8A\	-nes	8c#\	-nes	8g\	-nes	8ee\	-nes	.	.
4AA/	.	.	.	.	.	.	4A\	gen-	4c#\	gen-	4g\	gen-	4ee\	gen-	.	.
.	.	.	16cc#\LL	.	16ee\LL	.	.	.	.	.	.	.	.	.	.	.
.	.	.	16dd\JJ	.	16ff#\JJ	.	.	.	.	.	.	.	.	.	.	.
4A\	.	.	8ee\L	.	8gg\L	.	4A\	-tes	4c#\	-tes	4g\	-tes	4ee\	-tes	.	.
.	.	.	8ee\J	.	8gg\J	.	.	.	.	.	.	.	.	.	.	.
!	!	!	!	!	!	!	!	!	!LO:LB:g=original	!	!	!	!	!	!	!
=29	=29	=29	=29	=29	=29	=29	=29	=29	=29	=29	=29	=29	=29	=29	=29	=29
4D\	4 x	.	8.ee\L	.	8gg\L	.	8D\	Do-	8A\	Do-	8g\	Do-	8ee\	Do-	2.ryy	2.ryy
.	.	.	.	.	16ff#\L	.	8D\	-mi-	8A\	-mi-	8g\	-mi-	8ee\	-mi-	.	.
.	.	.	32ff#\LL	.	16gg\JJ	.	.	.	.	.	.	.	.	.	.	.
.	.	.	32ee\JJJ	.	.	.	.	.	.	.	.	.	.	.	.	.
!!mixed beam:problem
!	!	!	!LO:TX:t=P:problem:mixed beam	!	!	!	!	!	!	!	!	!	!	!	!	!
4DD/	3 x	.	16dd\LL	.	16ff#\LL	.	4D\	-nus	4A\	-nus	4f#\	-nus	4dd\	-nus	.	.
.	.	.	16f#/	.	16dd\	.	.	.	.	.	.	.	.	.	.	.
.	.	.	16g/	.	16ee\	.	.	.	.	.	.	.	.	.	.	.
.	.	.	16a/JJ	.	16ff#\JJ	.	.	.	.	.	.	.	.	.	.	.
4r	.	.	16b\LL	.	16gg\LL	.	4r	.	4r	.	4r	.	4r	.	.	.
.	.	.	16cc#X\	.	16aa\	.	.	.	.	.	.	.	.	.	.	.
.	.	.	16dd\	.	16bb\	.	.	.	.	.	.	.	.	.	.	.
.	.	.	16ee\JJ	.	16ccc#X\JJ	.	.	.	.	.	.	.	.	.	.	.
!	!	!	!	!	!	!	!	!	!	!	!	!	!LO:LB:g=original	!	!	!
=30	=30	=30	=30	=30	=30	=30	=30	=30	=30	=30	=30	=30	=30	=30	=30	=30
4D\	.	.	8ff#\L	.	8ddd\L	.	4D\	&	4d\	&	4a\	&	4ff#\	&	2.ryy	2.ryy
.	.	.	16dd\L	.	16ff#\L	.	.	.	.	.	.	.	.	.	.	.
.	.	.	16ee\JJ	.	16gg\JJ	.	.	.	.	.	.	.	.	.	.	.
!	!	!	!LO:LB:g=original	!	!	!	!	!	!	!	!	!	!	!	!	!
4D\	.	.	8ff#\L	.	8aa\L	.	4D\	ſu-	4d\	ſu-	4a\	ſu-	4ff#\	ſu-	.	.
.	.	.	8ff#\	.	8aa\J	.	.	.	.	.	.	.	.	.	.	.
!	!	!	!	!	!LO:LB:g=original	!	!	!	!	!	!	!	!	!	!	!
4D\	.	.	8ff#\	.	16aa\LL	.	4D\	-per	4d\	-per	4a\	-per	4ff#\	-per	.	.
.	.	.	.	.	16bb\	.	.	.	.	.	.	.	.	.	.	.
.	.	.	8ff#\J	.	16ccc#X\	.	.	.	.	.	.	.	.	.	.	.
.	.	.	.	.	16ddd\JJ	.	.	.	.	.	.	.	.	.	.	.
=31	=31	=31	=31	=31	=31	=31	=31	=31	=31	=31	=31	=31	=31	=31	=31	=31
4d\	4 x	.	8.gg\L	.	8.bb\L	.	4D\	Cae-	4d\	Cae-	4b\	cae-	4gg\	cae-	2.ryy	2.ryy
.	.	.	32ff#\LL	.	32aa\LL	.	.	.	.	.	.	.	.	.	.	.
.	.	.	32gg\JJJ	.	32bb\JJJ	.	.	.	.	.	.	.	.	.	.	.
4D\	3 x	.	8ff#\L	.	8aa\L	.	4D\	-los	4d\	-los	4a\	-los	4ff#\	-los	.	.
.	.	.	16ff#\L	.	16ddd\L	.	.	.	.	.	.	.	.	.	.	.
.	.	.	16aa\JJ	.	16ccc\JJ	.	.	.	.	.	.	.	.	.	.	.
4r	.	.	16gg\LL	.	16bb\LL	.	4r	.	4r	.	4r	.	4r	.	.	.
.	.	.	16ff#\	.	16aa\	.	.	.	.	.	.	.	.	.	.	.
.	.	.	16ee\	.	16gg\	.	.	.	.	.	.	.	.	.	.	.
.	.	.	16dd\JJ	.	16ff#\JJ	.	.	.	.	.	.	.	.	.	.	.
!	!	!	!	!	!	!	!LO:LB:g=original	!	!	!	!LO:LB:g=original	!	!	!	!	!
=32	=32	=32	=32	=32	=32	=32	=32	=32	=32	=32	=32	=32	=32	=32	=32	=32
4A\	# x	.	16cc#X\LL	.	8.ee\L	.	4A\	glo-	4A\	glo-	4g\	glo-	4ee\	glo-	2.ryy	2.ryy
.	.	.	16b\	.	.	.	.	.	.	.	.	.	.	.	.	.
.	.	.	16cc#\	.	.	.	.	.	.	.	.	.	.	.	.	.
.	.	.	16dd\JJ	.	16ff#\Jk	.	.	.	.	.	.	.	.	.	.	.
4c#X\	.	.	8ee\L	.	8gg\L	.	4c#X\	-ri-	4A\	-ri-	4g\	-ri-	4ee\	-ri-	.	.
.	.	.	8ee\	.	8gg\J	.	.	.	.	.	.	.	.	.	.	.
4d\	.	.	8dd\	.	16ff#\LL	.	4d\	-a	4A\	-a	4f#\	-a	4dd\	-a	.	.
.	.	.	.	.	16dd\	.	.	.	.	.	.	.	.	.	.	.
.	.	.	8dd\J	.	16aa\	.	.	.	.	.	.	.	.	.	.	.
.	.	.	.	.	16ff#\JJ	.	.	.	.	.	.	.	.	.	.	.
=33	=33	=33	=33	=33	=33	=33	=33	=33	=33	=33	=33	=33	=33	=33	=33	=33
4A\	4 x	.	8dd\L	.	8ff#\L	.	4A\	e-	4A\	e-	4f#\	e-	4dd\	e-	2.ryy	2.ryy
.	.	.	16cc#X\L	.	16ee\L	.	.	.	.	.	.	.	.	.	.	.
.	.	.	16dd\JJ	.	16ff#\JJ	.	.	.	.	.	.	.	.	.	.	.
!!mixed beam:problem
!	!	!	!LO:TX:t=P:problem:mixed beam	!	!	!	!	!	!	!	!	!	!	!	!	!
4AA/	# x	.	16cc#\LL	.	16ee\LL	.	4AA/	-jus	4A\	-jus	4e\	-jus	4cc#X\	-jus	.	.
.	.	.	16c/	.	16a\	.	.	.	.	.	.	.	.	.	.	.
.	.	.	16d/	.	16b\	.	.	.	.	.	.	.	.	.	.	.
.	.	.	16e/JJ	.	16cc#X\JJ	.	.	.	.	.	.	.	.	.	.	.
4r	.	.	16f#/LL	.	16dd\LL	.	4r	.	4r	.	4r	.	4r	.	.	.
.	.	.	16g/	.	16ee\	.	.	.	.	.	.	.	.	.	.	.
.	.	.	16a/	.	16ff#\	.	.	.	.	.	.	.	.	.	.	.
.	.	.	16b/JJ	.	16gg\JJ	.	.	.	.	.	.	.	.	.	.	.
!	!	!	!	!	!	!	!	!	!LO:LB:g=original	!	!	!	!	!	!	!
=34	=34	=34	=34	=34	=34	=34	=34	=34	=34	=34	=34	=34	=34	=34	=34	=34
*	*	*	*^	*	*	*	*	*	*	*	*	*	*	*	*	*
*	*	*	*Xtremolo	*Xtremolo	*	*	*	*	*	*	*	*	*	*	*	*	*
8C#X/L	6: 5:	.	16a/LL	16e\LL	.	4.aa\	.	4C#X/	quis	4A\	quis	4g\	quis	4ee\	quis	2.ryy	2.ryy
.	.	.	16a/	16e\	.	.	.	.	.	.	.	.	.	.	.	.	.
8C#/	.	.	16a/	16e\	.	.	.	.	.	.	.	.	.	.	.	.	.
.	.	.	16a/JJ	16e\JJ	.	.	.	.	.	.	.	.	.	.	.	.	.
!	!	!	!LO:LB:g=original	!	!	!	!	!	!	!	!	!	!	!	!	!	!
8C#/	.	.	16a/LL	16e\LL	.	.	.	4C#/	ſi-	4A\	ſi-	4g\	ſi-	4ee\	ſi-	.	.
.	.	.	16a/	16e\	.	.	.	.	.	.	.	.	.	.	.	.	.
8C#/	.	.	16a/	16e\	.	16ee\LL	.	.	.	.	.	.	.	.	.	.	.
.	.	.	16a/JJ	16e\JJ	.	16ff#\JJ	.	.	.	.	.	.	.	.	.	.	.
*	*	*	*tremolo	*tremolo	*	*	*	*	*	*	*	*	*	*	*	*	*
8C#/	.	.	16a/LL	16e\LL	.	8gg\L	.	4C#/	-cut	4A\	-cut	4g\	-cut	4ee\	-cut	.	.
.	.	.	16a/	16e\	.	.	.	.	.	.	.	.	.	.	.	.	.
8C#/J	.	.	16a/	16e\	.	16ff#\L	.	.	.	.	.	.	.	.	.	.	.
.	.	.	16a/JJ	16e\JJ	.	16ee\JJ	.	.	.	.	.	.	.	.	.	.	.
!LO:LB:g=original	!	!	!	!	!	!LO:LB:g=original	!	!	!	!	!	!	!	!	!	!	!
=35	=35	=35	=35	=35	=35	=35	=35	=35	=35	=35	=35	=35	=35	=35	=35	=35	=35
8D\L	.	.	16a/LL	16f#\LL	.	8ff#\L	.	4.D\	Do-	4.A\	Do-	4.f#\	Do-	4.dd\	Do-	2.ryy	2.ryy
.	.	.	16a/	16f#\	.	.	.	.	.	.	.	.	.	.	.	.	.
8D\	.	.	16a/	16f#\	.	8aa\J	.	.	.	.	.	.	.	.	.	.	.
.	.	.	16a/JJ	16f#\JJ	.	.	.	.	.	.	.	.	.	.	.	.	.
8D\	.	.	16a/LL	16f#\LL	.	8r	.	.	.	.	.	.	.	.	.	.	.
.	.	.	16a/	16f#\	.	.	.	.	.	.	.	.	.	.	.	.	.
8D\	.	.	16a/	16f#\	.	8aa\L	.	8D\	-mi-	8A\	-mi-	8f#\	-mi-	8dd\	-mi-	.	.
.	.	.	16a/JJ	16f#\JJ	.	.	.	.	.	.	.	.	.	.	.	.	.
8D\	.	.	16a/LL	16f#\LL	.	8ff#\	.	4D\	-nus	4A\	-nus	4f#\	-nus	4dd\	-nus	.	.
.	.	.	16a/	16f#\	.	.	.	.	.	.	.	.	.	.	.	.	.
8D\J	.	.	16a/	16f#\	.	8dd\J	.	.	.	.	.	.	.	.	.	.	.
.	.	.	16a/JJ	16f#\JJ	.	.	.	.	.	.	.	.	.	.	.	.	.
!	!	!	!	!	!	!	!	!	!	!	!	!	!	!LO:LB:g=original	!	!	!
=36	=36	=36	=36	=36	=36	=36	=36	=36	=36	=36	=36	=36	=36	=36	=36	=36	=36
*2\right	*	*	*	*	*	*	*	*	*	*	*	*	*	*	*	*	*
*tremolo	*	*	*	*	*	*	*	*	*	*	*	*	*	*	*	*	*
8E\L	6 3	.	16a/LL	16g\LL	.	4.cc#X\	.	8E\	De-	8A\	De-	8g\	De-	8cc#X\	De-	2.ryy	2.ryy
.	.	.	16a/	16g\	.	.	.	.	.	.	.	.	.	.	.	.	.
8E\	.	.	16a/	16g\	.	.	.	8E\	-us	8A\	-us	8g\	-us	8cc#\	-us	.	.
.	.	.	16a/JJ	16g\JJ	.	.	.	.	.	.	.	.	.	.	.	.	.
8E\	.	.	16a/LL	16g\LL	.	.	.	4E\	Noſ-	4A\	Noſ-	4g\	Noſ-	4cc#\	Noſ-	.	.
.	.	.	16a/	16g\	.	.	.	.	.	.	.	.	.	.	.	.	.
8E\	.	.	16a/	16g\	.	16dd\LL	.	.	.	.	.	.	.	.	.	.	.
.	.	.	16a/JJ	16g\JJ	.	16ee\JJ	.	.	.	.	.	.	.	.	.	.	.
8E\	.	.	16a/LL	16g\LL	.	16dd\LL	.	4E\	-ter	4A\	-ter	4g\	-ter	4cc#\	-ter	.	.
.	.	.	16a/	16g\	.	16cc#\	.	.	.	.	.	.	.	.	.	.	.
8E\J	.	.	16a/	16g\	.	16b\	.	.	.	.	.	.	.	.	.	.	.
.	.	.	16a/JJ	16g\JJ	.	16cc#\JJ	.	.	.	.	.	.	.	.	.	.	.
!	!	!	!	!	!	!	!	!	!	!	!	!LO:LB:g=original	!	!	!	!	!
=37	=37	=37	=37	=37	=37	=37	=37	=37	=37	=37	=37	=37	=37	=37	=37	=37	=37
8F#\L	6 3	.	16a/LL	16f#\LL	.	8cc\L	.	4F#\	quis	4A\	quis	4f#\	quis	4dd\	quis	2.ryy	2.ryy
.	.	.	16a/	16f#\	.	.	.	.	.	.	.	.	.	.	.	.	.
8F#\	.	.	16a/	16f#\	.	8dd\J	.	.	.	.	.	.	.	.	.	.	.
.	.	.	16a/JJ	16f#\JJ	.	.	.	.	.	.	.	.	.	.	.	.	.
8F#\	.	.	16a/LL	16f#\LL	.	8r	.	4F#\	in	4A\	in	4f#\	in	4dd\	in	.	.
.	.	.	16a/	16f#\	.	.	.	.	.	.	.	.	.	.	.	.	.
8F#\	.	.	16a/	16f#\	.	8dd\L	.	.	.	.	.	.	.	.	.	.	.
.	.	.	16a/JJ	16f#\JJ	.	.	.	.	.	.	.	.	.	.	.	.	.
!	!	!	!	!	!	!	!	!LO:LB:g=original	!	!	!	!	!	!	!	!	!
8F#\	.	.	16a/LL	16f#\LL	.	8ff#\	.	4F#\	al-	4A\	al-	4f#\	al-	4dd\	al-	.	.
.	.	.	16a/	16f#\	.	.	.	.	.	.	.	.	.	.	.	.	.
!	!	!	!	!	!	!LO:TX:b:t=Verte	!	!	!	!	!	!	!	!	!	!	!
8F#\J	.	.	16a/	16f#\	.	8aa\J	.	.	.	.	.	.	.	.	.	.	.
.	.	.	16a/JJ	16f#\JJ	.	.	.	.	.	.	.	.	.	.	.	.	.
!	!	!	!	!	!	!LO:PB:g=original	!	!	!	!	!	!	!	!	!	!	!
=38	=38	=38	=38	=38	=38	=38	=38	=38	=38	=38	=38	=38	=38	=38	=38	=38	=38
8C#X/L	6 5	.	16a/LL	16e\LL	.	4.aa\	.	4C#X/	-tis	4A\	-tis	4g\	-tis	4ee\	-tis	2.ryy	2.ryy
.	.	.	16a/	16e\	.	.	.	.	.	.	.	.	.	.	.	.	.
8C#X/	.	.	16a/	16e\	.	.	.	.	.	.	.	.	.	.	.	.	.
.	.	.	16a/JJ	16e\JJ	.	.	.	.	.	.	.	.	.	.	.	.	.
8C#X/	.	.	16a/LL	16e\LL	.	.	.	4.C#/	ha-	4.A\	ha-	4.g\	ha-	4.ee\	ha-	.	.
.	.	.	16a/	16e\	.	.	.	.	.	.	.	.	.	.	.	.	.
8C#X/	.	.	16a/	16e\	.	16ee\LL	.	.	.	.	.	.	.	.	.	.	.
.	.	.	16a/JJ	16e\JJ	.	16ff#\JJ	.	.	.	.	.	.	.	.	.	.	.
8C#X/	.	.	16a/LL	16e\LL	.	8gg\L	.	.	.	.	.	.	.	.	.	.	.
.	.	.	16a/	16e\	.	.	.	.	.	.	.	.	.	.	.	.	.
8C#X/J	.	.	16a/	16e\	.	16ff#\L	.	8C#/	-bi-	8A\	-bi-	8g\	-bi-	8ee\	-bi-	.	.
.	.	.	16a/JJ	16e\JJ	.	16ee\JJ	.	.	.	.	.	.	.	.	.	.	.
!	!	!	!	!	!	!	!	!	!	!LO:LB:g=original	!	!	!	!	!	!	!
=39	=39	=39	=39	=39	=39	=39	=39	=39	=39	=39	=39	=39	=39	=39	=39	=39	=39
8D\L	.	.	16a/LL	16f#\LL	.	8ff#\L	.	4D\	-tat	4A\	-tat	4f#\	-tat	4dd\	-tat	2.ryy	2.ryy
.	.	.	16a/	16f#\	.	.	.	.	.	.	.	.	.	.	.	.	.
8D\	.	.	16a/	16f#\	.	8aa\J	.	.	.	.	.	.	.	.	.	.	.
.	.	.	16a/JJ	16f#\JJ	.	.	.	.	.	.	.	.	.	.	.	.	.
8D\	.	.	16a/LL	16f#\LL	.	8r	.	4D\	&	4A\	&	4f#\	&	4dd\	&	.	.
.	.	.	16a/	16f#\	.	.	.	.	.	.	.	.	.	.	.	.	.
8D\	.	.	16a/	16f#\	.	8aa\L	.	.	.	.	.	.	.	.	.	.	.
.	.	.	16a/JJ	16f#\JJ	.	.	.	.	.	.	.	.	.	.	.	.	.
8D\	.	.	16a/LL	16f#\LL	.	8ff#\	.	4D\	hu-	4A\	hu-	4f#\	hu-	4dd\	hu-	.	.
.	.	.	16a/	16f#\	.	.	.	.	.	.	.	.	.	.	.	.	.
8D\J	.	.	16a/	16f#\	.	8dd\J	.	.	.	.	.	.	.	.	.	.	.
.	.	.	16a/JJ	16f#\JJ	.	.	.	.	.	.	.	.	.	.	.	.	.
=40	=40	=40	=40	=40	=40	=40	=40	=40	=40	=40	=40	=40	=40	=40	=40	=40	=40
8E\L	6 3	.	16a/LL	16g\LL	.	4.cc#X\	.	8E\	-mi-	8A\	-mi-	8g\	-mi-	8cc#X\	-mi-	2.ryy	2.ryy
.	.	.	16a/	16g\	.	.	.	.	.	.	.	.	.	.	.	.	.
8E\	.	.	16a/	16g\	.	.	.	8E\	-li-	8A\	-li-	8g\	-li-	8cc#\	-li-	.	.
.	.	.	16a/JJ	16g\JJ	.	.	.	.	.	.	.	.	.	.	.	.	.
8E\	.	.	16a/LL	16g\LL	.	.	.	4E\	-a	4A\	-a	4g\	-a	4cc#\	-a	.	.
.	.	.	16a/	16g\	.	.	.	.	.	.	.	.	.	.	.	.	.
8E\	.	.	16a/	16g\	.	16dd\LL	.	.	.	.	.	.	.	.	.	.	.
.	.	.	16a/JJ	16g\JJ	.	16ee\JJ	.	.	.	.	.	.	.	.	.	.	.
!	!	!	!	!	!	!	!	!	!	!	!	!	!	!LO:LB:g=original	!	!	!
8E\	.	.	16a/LL	16g\LL	.	16dd\LL	.	4E\	reſ-	4A\	reſ-	4g\	res-	4cc#\	reſ-	.	.
.	.	.	16a/	16g\	.	16cc#\	.	.	.	.	.	.	.	.	.	.	.
8E\J	.	.	16a/	16g\	.	16b\	.	.	.	.	.	.	.	.	.	.	.
.	.	.	16a/JJ	16g\JJ	.	16cc#\JJ	.	.	.	.	.	.	.	.	.	.	.
!	!	!	!LO:LB:g=original	!LO:LB:g=original	!	!	!	!	!	!	!	!	!	!	!	!	!
=41	=41	=41	=41	=41	=41	=41	=41	=41	=41	=41	=41	=41	=41	=41	=41	=41	=41
*	*	*	*Xtremolo	*Xtremolo	*	*	*	*	*	*	*	*	*	*	*	*	*
8F#\L	6 3	.	16a/LL	16f#\LL	.	8cc\L	.	4F#\	-pi-	4A\	-pi-	4f#\	-pi-	4dd\	-pi-	2.ryy	2.ryy
.	.	.	16a/	16f#\	.	.	.	.	.	.	.	.	.	.	.	.	.
8F#\	.	.	16a/	16f#\	.	8dd\J	.	.	.	.	.	.	.	.	.	.	.
.	.	.	16a/JJ	16f#\JJ	.	.	.	.	.	.	.	.	.	.	.	.	.
*	*	*	*tremolo	*tremolo	*	*	*	*	*	*	*	*	*	*	*	*	*
8F#\	.	.	16a/LL	16f#\LL	.	8r	.	4F#\	-cit	4A\	-cit	4f#\	-cit	4dd\	-cit	.	.
.	.	.	16a/	16f#\	.	.	.	.	.	.	.	.	.	.	.	.	.
8F#\	.	.	16a/	16f#\	.	8dd\L	.	.	.	.	.	.	.	.	.	.	.
.	.	.	16a/JJ	16f#\JJ	.	.	.	.	.	.	.	.	.	.	.	.	.
!	!	!	!	!	!	!	!	!	!	!	!	!LO:LB:g=original	!	!	!	!	!
8F#\	.	.	16a/LL	16f#\LL	.	8ff#\	.	4F#\	in	4A\	in	4f#\	in	4dd\	in	.	.
.	.	.	16a/	16f#\	.	.	.	.	.	.	.	.	.	.	.	.	.
8F#\J	.	.	16a/	16f#\	.	8aa\J	.	.	.	.	.	.	.	.	.	.	.
.	.	.	16a/JJ	16f#\JJ	.	.	.	.	.	.	.	.	.	.	.	.	.
*Xtremolo	*	*	*	*	*	*	*	*	*	*	*	*	*	*	*	*	*
*	*	*	*v	*v	*	*	*	*	*	*	*	*	*	*	*	*	*
=42	=42	=42	=42	=42	=42	=42	=42	=42	=42	=42	=42	=42	=42	=42	=42	=42
*	*	*	*	*	*	*	*2\right	*	*2\right	*	*	*	*	*	*	*
8G\L	6: x	.	16b\LL	.	(>8gg\L	.	2G\	cae-	2B\	cae-	2g\	cae-	2ee\	cae-	2.ryy	2.ryy
.	.	.	16b\	.	.	.	.	.	.	.	.	.	.	.	.	.
8G\	.	.	16b\	.	8ee\J)	.	.	.	.	.	.	.	.	.	.	.
.	.	.	16b\JJ	.	.	.	.	.	.	.	.	.	.	.	.	.
8G\	.	.	16b\LL	.	8r	.	.	.	.	.	.	.	.	.	.	.
.	.	.	16b\	.	.	.	.	.	.	.	.	.	.	.	.	.
8G\	.	.	16b\	.	8ee\	.	.	.	.	.	.	.	.	.	.	.
.	.	.	16b\JJ	.	.	.	.	.	.	.	.	.	.	.	.	.
8A\	#: x	.	16cc#X\LL	.	(>8.eeT>\L	.	4A\	-lo	4A\	-lo	4e\	-lo	4cc#X\	-lo	.	.
.	.	.	16cc#X\	.	.	.	.	.	.	.	.	.	.	.	.	.
8A\J	.	.	16cc#X\	.	.	.	.	.	.	.	.	.	.	.	.	.
.	.	.	16cc#X\JJ	.	32dd\LL	.	.	.	.	.	.	.	.	.	.	.
.	.	.	.	.	32ee\JJJ)	.	.	.	.	.	.	.	.	.	.	.
!LO:LB:g=original	!	!	!	!	!LO:LB:g=original	!	!LO:LB:g=original	!	!	!	!	!	!	!	!	!
=43	=43	=43	=43	=43	=43	=43	=43	=43	=43	=43	=43	=43	=43	=43	=43	=43
8B\L	.	.	16f#/LL	.	(>8ff#\L	.	2B\	&	2B\	&	2f#\	&	2dd\	&	2.ryy	2.ryy
.	.	.	16f#/	.	.	.	.	.	.	.	.	.	.	.	.	.
8B\	.	.	16f#/	.	8dd\J)	.	.	.	.	.	.	.	.	.	.	.
.	.	.	16f#/JJ	.	.	.	.	.	.	.	.	.	.	.	.	.
8B\	.	.	16f#/LL	.	8r	.	.	.	.	.	.	.	.	.	.	.
.	.	.	16f#/	.	.	.	.	.	.	.	.	.	.	.	.	.
8B\	.	.	16f#/	.	8dd\	.	.	.	.	.	.	.	.	.	.	.
.	.	.	16f#/JJ	.	.	.	.	.	.	.	.	.	.	.	.	.
8F#\	6 x	.	16a/LL	.	(>8.ddT>\L	.	4F#\	in	4A\	in	4f#\	in	4dd\	in	.	.
.	.	.	16a/	.	.	.	.	.	.	.	.	.	.	.	.	.
8F#\J	.	.	16a/	.	.	.	.	.	.	.	.	.	.	.	.	.
.	.	.	16a/JJ	.	32cc#X\LL	.	.	.	.	.	.	.	.	.	.	.
.	.	.	.	.	32dd\JJJ)	.	.	.	.	.	.	.	.	.	.	.
*	*	*	*Xtremolo	*	*	*	*	*	*	*	*	*	*	*	*	*
=44	=44	=44	=44	=44	=44	=44	=44	=44	=44	=44	=44	=44	=44	=44	=44	=44
!	!	!	!LO:TX:a:t=|:problem	!	!	!	!	!	!	!	!	!	!	!	!	!
8G\L	6 x	.	8b/L	.	16ee\LL	.	4G\	ter-	4B\	ter-	4g\	ter-	4ee\	ter-	2.ryy	2.ryy
.	.	.	.	.	16ff#\	.	.	.	.	.	.	.	.	.	.	.
8G\	.	.	8g/J	.	16gg\	.	.	.	.	.	.	.	.	.	.	.
.	.	.	.	.	16ee\JJ	.	.	.	.	.	.	.	.	.	.	.
8A\	4 x	.	4f#/	.	4dd\	.	4A\	.	2A\	.	4f#\	.	4dd\	.	.	.
!!mixed beam:problem
!LO:TX:t=P:problem:mixed beam	!	!	!	!	!	!	!	!	!	!	!	!	!	!	!	!
8A\	.	.	.	.	.	.	.	.	.	.	.	.	.	.	.	.
8AA/	# x	.	4e/	.	4cc#X\	.	4AA/	.	.	.	4e\	.	4cc#X\	.	.	.
8AA/J	.	.	.	.	.	.	.	.	.	.	.	.	.	.	.	.
!	!	!	!	!	!	!	!	!	!LO:LB:g=original	!	!	!	!	!	!	!
=45	=45	=45	=45	=45	=45	=45	=45	=45	=45	=45	=45	=45	=45	=45	=45	=45
!LO:TX:a:i:t=Solo	!	!	!	!	!	!	!	!	!	!	!	!	!	!	!	!
4D\	.	.	4.f#/	.	4.dd\	.	4D\	-ra	4A\	-ra	4f#\	-ra	4dd\	-ra	2.ryy	2.ryy
4r	.	.	.	.	.	.	4r	.	4r	.	4r	.	4r	.	.	.
!	!	!	!LO:TX:a:i:t=dol.	!	!LO:TX:a:i:t=dol&colon;:rj	!	!	!	!	!	!	!	!	!	!	!
.	.	.	16f#/LL	.	16ff#\LL	.	.	.	.	.	.	.	.	.	.	.
.	.	.	16e/JJ	.	16ee\JJ	.	.	.	.	.	.	.	.	.	.	.
!	!	!	!	!	!LO:TX:a:t=|:problem	!	!	!	!	!	!	!	!	!	!	!
4F#\	6 n5r	.	(<8d/L	.	8dd\L	.	4r	.	4r	.	4r	.	4r	.	.	.
!	!	!	!	!	!LO:TX:a:t=|:problem	!	!	!	!	!	!	!	!	!	!	!
.	.	.	8cn/J)	.	8ccn\J	.	.	.	.	.	.	.	.	.	.	.
=46	=46	=46	=46	=46	=46	=46	=46	=46	=46	=46	=46	=46	=46	=46	=46	=46
!	!	!	!	!	!	!	!	!	!	!	!	!	!LO:TX:b:t=21.:color=gray	!	!	!
4G\	.	.	(<8c/L	.	(>8cc\L	.	0.r	.	1.r	.	1.r	.	0.r	.	2.ryy	2.ryy
.	.	.	8B/)	.	8b\)	.	.	.	.	.	.	.	.	.	.	.
4E\	5 x	.	(<8B/	.	(>8b\	.	.	.	.	.	.	.	.	.	.	.
.	6 x	.	8c#X/)	.	8cc#X\)	.	.	.	.	.	.	.	.	.	.	.
4F#\	5 x	.	(<8c#/	.	(>8cc#\	.	.	.	.	.	.	.	.	.	.	.
.	6 x	.	8d/J)	.	8dd\J)	.	.	.	.	.	.	.	.	.	.	.
!	!	!	!LO:LB:g=original	!	!	!	!	!	!	!	!	!	!	!	!	!
=47	=47	=47	=47	=47	=47	=47	=47-	=47	=47-	=47	=47-	=47	=47-	=47	=47	=47
4G\	6 x	.	8e/L	.	16ee\LL	.	.	.	.	.	.	.	.	.	2.ryy	2.ryy
.	.	.	.	.	16ff#\	.	.	.	.	.	.	.	.	.	.	.
.	.	.	8g/J	.	16gg\	.	.	.	.	.	.	.	.	.	.	.
.	.	.	.	.	16ee\JJ	.	.	.	.	.	.	.	.	.	.	.
4A\	4 x	.	4f#/	.	4dd\	.	.	.	.	.	.	.	.	.	.	.
4AA/	# x	.	4e/	.	4cc#X\	.	.	.	.	.	.	.	.	.	.	.
!	!	!	!	!	!LO:LB:g=original	!	!	!	!	!	!	!	!	!	!	!
=48	=48	=48	=48	=48	=48	=48	=48-	=48	=48-	=48	=48-	=48	=48-	=48	=48	=48
4D\	.	.	4f#/	.	8dd\L	.	.	.	2.r	.	2.r	.	.	.	2.ryy	2.ryy
.	.	.	.	.	8ff#\J	.	.	.	.	.	.	.	.	.	.	.
4DD/	.	.	4f#/	.	4dd\	.	.	.	.	.	.	.	.	.	.	.
!	!	!	!LO:TX:b:t=Verte	!	!	!	!	!	!	!	!	!	!	!	!	!
4r	.	.	4r	.	4r	.	.	.	.	.	.	.	.	.	.	.
!LO:LB:g=original	!	!	!LO:PB:g=original	!	!	!	!	!	!	!	!	!	!	!	!	!
=49	=49	=49	=49	=49	=49	=49	=49-	=49	=49	=49	=49	=49	=49-	=49	=49	=49
!	!	!LO:DY:a:t=pio&colon;:rj	!	!LO:DY:a:rj:t=p&colon;	!	!LO:DY:a:rj:t=pio&colon;	!	!	!LO:TX:a:i:t=Solo&colon;:rj	!	!LO:TX:a:i:t=Solo&colon;:rj	!	!	!	!	!
8D\L	.	p	2dd\	p	2ff#\	p	.	.	2d\	ſus-	2f#\	ſus-	.	.	2.ryy	2.ryy
8D\	.	.	.	.	.	.	.	.	.	.	.	.	.	.	.	.
8D\	.	.	.	.	.	.	.	.	.	.	.	.	.	.	.	.
8D\	.	.	.	.	.	.	.	.	.	.	.	.	.	.	.	.
8D\	.	.	8ff#\L	.	8aa\L	.	.	.	8f#\L	-ci-	8a\L	-ci-	.	.	.	.
8D\J	.	.	8ee\J	.	8gg\J	.	.	.	8e\J	.	8g\J	.	.	.	.	.
!	!	!	!	!	!	!	!	!	!	!	!LO:LB:g=original	!	!	!	!	!
=50	=50	=50	=50	=50	=50	=50	=50-	=50	=50	=50	=50	=50	=50-	=50	=50	=50
*tremolo	*	*	*	*	*	*	*	*	*	*	*	*	*	*	*	*
8D\L	.	.	2dd\	.	2ff#\	.	0.r	.	2d\	-tans	2f#\	-tans	0.r	.	2.ryy	2.ryy
8D\	.	.	.	.	.	.	.	.	.	.	.	.	.	.	.	.
8D\	.	.	.	.	.	.	.	.	.	.	.	.	.	.	.	.
8D\	.	.	.	.	.	.	.	.	.	.	.	.	.	.	.	.
8D\	.	.	4ff#\	.	4aa\	.	.	.	4f#\	a	4a\	a	.	.	.	.
8D\J	.	.	.	.	.	.	.	.	.	.	.	.	.	.	.	.
*Xtremolo	*	*	*	*	*	*	*	*	*	*	*	*	*	*	*	*
=51	=51	=51	=51	=51	=51	=51	=51-	=51	=51	=51	=51	=51	=51-	=51	=51	=51
8G\L	6: x	.	4.ee\	.	4.gg\	.	.	.	(>4.e\	ter-	(>4.g\	ter-	.	.	2.ryy	2.ryy
8G\	.	.	.	.	.	.	.	.	.	.	.	.	.	.	.	.
8G\	.	.	.	.	.	.	.	.	.	.	.	.	.	.	.	.
8G\	.	.	8gg\L	.	8bb\L	.	.	.	8g\)	.	8b\)	.	.	.	.	.
8A\	# x	.	8cc#X\	.	8ee\	.	.	.	8c#X\L	-ra	8e\L	-ra	.	.	.	.
8A\J	.	.	8ee\J	.	8gg\J	.	.	.	8e\J	.	8g\J	.	.	.	.	.
=52	=52	=52	=52	=52	=52	=52	=52-	=52	=52	=52	=52	=52	=52-	=52	=52	=52
*tremolo	*	*	*	*	*	*	*	*	*	*	*	*	*	*	*	*
8D\L	.	.	8ee\L	.	8gg\L	.	.	.	8e\	in-	8g\	in-	.	.	2.ryy	2.ryy
8D\	.	.	8dd\J	.	8ff#\J	.	.	.	8d\	-o-	8f#\	-o-	.	.	.	.
8D\	.	.	4dd\	.	4ff#\	.	.	.	4d\	-pem	4f#\	-pem	.	.	.	.
8D\	.	.	.	.	.	.	.	.	.	.	.	.	.	.	.	.
*	*	*	*	*	*	*	*	*	*	*	*	*ij	*	*	*	*
8D\	.	.	4ff#\	.	4aa\	.	.	.	4f#\	a	4a\	a	.	.	.	.
8D\J	.	.	.	.	.	.	.	.	.	.	.	.	.	.	.	.
*Xtremolo	*	*	*	*	*	*	*	*	*	*	*	*	*	*	*	*
!	!	!	!	!	!	!	!	!	!	!	!LO:LB:g=original	!	!	!	!	!
=53	=53	=53	=53	=53	=53	=53	=53-	=53	=53	=53	=53	=53	=53-	=53	=53	=53
8G\L	6: x	.	4.ee\	.	4.gg\	.	.	.	(>4.e\	ter-	(>4.g\	ter-	.	.	2.ryy	2.ryy
8G\	.	.	.	.	.	.	.	.	.	.	.	.	.	.	.	.
8G\	.	.	.	.	.	.	.	.	.	.	.	.	.	.	.	.
8G\	.	.	8gg\L	.	8bb\L	.	.	.	8g\)	.	8b\)	.	.	.	.	.
8A\	# x	.	8cc#X\	.	8ee\	.	.	.	8c#X\L	-ra	8e\L	-ra	.	.	.	.
8A\J	.	.	8ee\J	.	8gg\J	.	.	.	8e\J	.	8g\J	.	.	.	.	.
=54	=54	=54	=54	=54	=54	=54	=54-	=54	=54	=54	=54	=54	=54-	=54	=54	=54
*tremolo	*	*	*	*	*	*	*	*	*	*	*	*	*	*	*	*
8D\L	.	.	8ee\L	.	8gg\L	.	0.r	.	8e\	in-	8g\	in-	0.r	.	2.ryy	2.ryy
8D\	.	.	8dd\J	.	8ff#\J	.	.	.	8d\	-o-	8f#\	-o-	.	.	.	.
8D\	.	.	4dd\	.	4ff#\	.	.	.	4d\	-pem	4f#\	-pem	.	.	.	.
8D\	.	.	.	.	.	.	.	.	.	.	.	.	.	.	.	.
!	!	!	!	!	!	!	!	!	!	!	!	!LO:LB:g=original	!	!	!	!
*	*	*	*	*	*	*	*	*	*	*	*	*Xij	*	*	*	*
8D\	.	.	4ff#\	.	4aa\	.	.	.	4f#\	&	4a\	&	.	.	.	.
8D\J	.	.	.	.	.	.	.	.	.	.	.	.	.	.	.	.
!	!	!	!LO:LB:g=original	!	!LO:LB:g=original	!	!	!	!	!	!	!	!	!	!	!
=55	=55	=55	=55	=55	=55	=55	=55-	=55	=55	=55	=55	=55	=55-	=55	=55	=55
8D\L	6 4	.	4.gg\	.	(>4.bb\	.	.	.	4g\	de	4b\	de	.	.	2.ryy	2.ryy
8D\	.	.	.	.	.	.	.	.	.	.	.	.	.	.	.	.
8D\	.	.	.	.	.	.	.	.	4g\	ſter-	4b\	ſter-	.	.	.	.
8D\	.	.	16ff#\LL	.	16aa\LL)	.	.	.	.	.	.	.	.	.	.	.
.	.	.	16gg\JJ	.	16bb\JJ	.	.	.	.	.	.	.	.	.	.	.
8D\	.	.	8bb\L	.	8ddd\L	.	.	.	8b\	-co-	8dd\	-co-	.	.	.	.
8D\J	.	.	8gg\J	.	8bb\J	.	.	.	8g\	-re	8b\	-re	.	.	.	.
*Xtremolo	*	*	*	*	*	*	*	*	*	*	*	*	*	*	*	*
!LO:LB:g=original	!	!	!	!	!	!	!	!	!	!	!	!	!	!	!	!
=56	=56	=56	=56	=56	=56	=56	=56-	=56	=56	=56	=56	=56	=56-	=56	=56	=56
8D\L	x 3:	.	4.ff#\	.	(>4.aa\	.	.	.	4.f#\	e-	4.a\	e-	.	.	2.ryy	2.ryy
8D\	.	.	.	.	.	.	.	.	.	.	.	.	.	.	.	.
8D\	.	.	.	.	.	.	.	.	.	.	.	.	.	.	.	.
8D\	.	.	8dd\	.	8ff#\)	.	.	.	8d\	-ri-	8f#\	-ri-	.	.	.	.
8D\	.	.	4ff#\	.	4aa\	.	.	.	4f#\	-gens	4a\	-gens	.	.	.	.
8D\J	.	.	.	.	.	.	.	.	.	.	.	.	.	.	.	.
!	!	!	!	!	!	!	!	!	!	!	!LO:LB:g=original	!	!	!	!	!
=57	=57	=57	=57	=57	=57	=57	=57-	=57	=57	=57	=57	=57	=57-	=57	=57	=57
8G\L	6	.	8gg\L	.	8bb\L	.	.	.	8g\L	pau-	8b\L	pau-	.	.	2.ryy	2.ryy
8G\	.	.	8ee\J	.	8gg\J	.	.	.	8e\J	.	8g\J	.	.	.	.	.
8A\	4 x	.	4dd\	.	4ff#\	.	.	.	4d\	.	4f#\	.	.	.	.	.
!!mixed beam:problem
!LO:TX:t=P:problem:mixed beam	!	!	!	!	!	!	!	!	!	!	!	!	!	!	!	!
8A\	.	.	.	.	.	.	.	.	.	.	.	.	.	.	.	.
8AA/	# x	.	4cc#X\	.	4ee\	.	.	.	4c#X\	-pe-	4e\	-pe-	.	.	.	.
8AA/J	.	.	.	.	.	.	.	.	.	.	.	.	.	.	.	.
=58	=58	=58	=58	=58	=58	=58	=58-	=58	=58	=58	=58	=58	=58-	=58	=58	=58
8D\L	.	.	4dd\	.	4ff#\	.	0.r	.	4d\	-rem	4f#\	-rem	0.r	.	2.ryy	2.ryy
16E\L	.	.	.	.	.	.	.	.	.	.	.	.	.	.	.	.
16A\JJ	.	.	.	.	.	.	.	.	.	.	.	.	.	.	.	.
!LO:TX:a:t=|:problem	!	!	!	!	!	!	!	!	!	!	!	!	!	!	!	!
8d\L	.	.	4dd\	.	4ff#\	.	.	.	4r	.	4r	.	.	.	.	.
!LO:TX:a:t=|:problem	!	!	!	!	!	!	!	!	!	!	!	!	!	!	!	!
8cn\	.	.	.	.	.	.	.	.	.	.	.	.	.	.	.	.
!LO:TX:a:t=|:problem	!	!	!	!	!	!	!	!	!	!	!	!	!	!	!	!
8B\	.	.	4r	.	4r	.	.	.	4r	.	4r	.	.	.	.	.
!LO:TX:a:t=|:problem	!	!	!	!	!	!	!	!	!	!	!	!	!	!	!	!
8A\J	.	.	.	.	.	.	.	.	.	.	.	.	.	.	.	.
!	!	!	!	!	!	!	!	!	!	!	!LO:LB:g=original	!	!	!	!	!
=59	=59	=59	=59	=59	=59	=59	=59-	=59	=59	=59	=59	=59	=59-	=59	=59	=59
4G#X\	6: 5:	.	4e/	.	8.dd\L	.	.	.	8.d\L	ut	1.r	.	.	.	2.ryy	2.ryy
.	.	.	.	.	32cc\LL	.	.	.	32c\LL	.	.	.	.	.	.	.
.	.	.	.	.	32dd\JJJ	.	.	.	32d\JJJ	.	.	.	.	.	.	.
4G#\	.	.	4e/	.	8ee\L	.	.	.	8e\L	col-	.	.	.	.	.	.
.	.	.	.	.	8dd\	.	.	.	8d\J	.	.	.	.	.	.	.
8r	.	.	4e/	.	8ccn\	.	.	.	8cn\	-lo-	.	.	.	.	.	.
8G#\	.	.	.	.	8b\J	.	.	.	8B\	-cet	.	.	.	.	.	.
=60	=60	=60	=60	=60	=60	=60	=60-	=60	=60	=60	=60-	=60	=60-	=60	=60	=60
8A\L	n: x	.	4e/	.	8cc\L	.	.	.	8c\L	e-	.	.	.	.	2.ryy	2.ryy
16A\L	.	.	.	.	8b\J	.	.	.	8B\J	.	.	.	.	.	.	.
16B\JJ	.	.	.	.	.	.	.	.	.	.	.	.	.	.	.	.
8c\L	.	.	4e/	.	4cc\	.	.	.	4c\	-um	.	.	.	.	.	.
8B\	.	.	.	.	.	.	.	.	.	.	.	.	.	.	.	.
8A\	.	.	4r	.	4r	.	.	.	4r	.	.	.	.	.	.	.
8Gn\J	.	.	.	.	.	.	.	.	.	.	.	.	.	.	.	.
!LO:LB:g=original	!	!	!	!	!LO:LB:g=original	!	!	!	!	!	!	!	!	!	!	!
=61	=61	=61	=61	=61	=61	=61	=61-	=61	=61	=61	=61	=61	=61-	=61	=61	=61
4F#\	6: 5:	.	4d/	.	8.cc\L	.	.	.	2.r	.	8ccn\	e-	.	.	2.ryy	2.ryy
.	.	.	.	.	.	.	.	.	.	.	16b\LL	-um	.	.	.	.
.	.	.	.	.	32b\LL	.	.	.	.	.	16cc\JJ	.	.	.	.	.
.	.	.	.	.	32cc\JJJ	.	.	.	.	.	.	.	.	.	.	.
4F#\	.	.	4d/	.	8dd\L	.	.	.	.	.	8dd\L	Cum	.	.	.	.
.	.	.	.	.	8cc\	.	.	.	.	.	8cc\J	.	.	.	.	.
8r	.	.	4d/	.	8b\	.	.	.	.	.	8b\L	prin-	.	.	.	.
8F#\	.	.	.	.	8a\J	.	.	.	.	.	8a\J	.	.	.	.	.
!	!	!	!LO:LB:g=original	!	!	!	!	!	!	!	!LO:LB:g=original	!	!	!	!	!
=62	=62	=62	=62	=62	=62	=62	=62-	=62	=62	=62	=62	=62	=62-	=62	=62	=62
8G\L	.	.	4d/	.	8b\L	.	0.r	.	4r	.	8b\	-ci-	0.r	.	2.ryy	2.ryy
8G\	.	.	.	.	8a\J	.	.	.	.	.	8a\	-pi-	.	.	.	.
8G\	.	.	4d/	.	4b\	.	.	.	4r	.	4b\	-bus	.	.	.	.
8G\	.	.	.	.	.	.	.	.	.	.	.	.	.	.	.	.
8G\	.	.	4b\	.	4dd\	.	.	.	4d\	prin-	4dd\	prin-	.	.	.	.
8G\J	.	.	.	.	.	.	.	.	.	.	.	.	.	.	.	.
=63	=63	=63	=63	=63	=63	=63	=63-	=63	=63	=63	=63	=63	=63-	=63	=63	=63
8G\L	6: 4:	.	4.cc\	.	4.ee\	.	.	.	4.e\	-ci-	4.cc\	-ci-	.	.	2.ryy	2.ryy
8G\	.	.	.	.	.	.	.	.	.	.	.	.	.	.	.	.
8G\	.	.	.	.	.	.	.	.	.	.	.	.	.	.	.	.
8G\	.	.	16b\LL	.	16dd\LL	.	.	.	8e\	-pi-	8cc\	-pi-	.	.	.	.
.	.	.	16cc\JJ	.	16ee\JJ	.	.	.	.	.	.	.	.	.	.	.
8G\	5 3	.	4b\	.	8dd\L	.	.	.	4d\	-bus	4b\	-bus	.	.	.	.
8G\J	.	.	.	.	8ff#\J	.	.	.	.	.	.	.	.	.	.	.
!	!	!	!	!	!	!	!	!	!	!	!LO:LB:g=original	!	!	!	!	!
=64	=64	=64	=64	=64	=64	=64	=64-	=64	=64	=64	=64	=64	=64-	=64	=64	=64
8F#\L	6: 5:	.	4.a/	.	4.cc\	.	.	.	4.c\	po-	4.a\	po-	.	.	2.ryy	2.ryy
8F#\	.	.	.	.	.	.	.	.	.	.	.	.	.	.	.	.
8F#\	.	.	.	.	.	.	.	.	.	.	.	.	.	.	.	.
8F#\	.	.	16b/LL	.	16dd\LL	.	.	.	8c\	-pu-	8a\	-pu-	.	.	.	.
.	.	.	16a/JJ	.	16cc\JJ	.	.	.	.	.	.	.	.	.	.	.
8G\	.	.	8g/L	.	8b\L	.	.	.	4B\	-li	4g\	-li	.	.	.	.
8G\J	.	.	8b/J	.	16cc\L	.	.	.	.	.	.	.	.	.	.	.
.	.	.	.	.	16dd\JJ	.	.	.	.	.	.	.	.	.	.	.
=65	=65	=65	=65	=65	=65	=65	=65-	=65	=65	=65	=65	=65	=65-	=65	=65	=65
8C/L	6 x	.	8cc/L	.	8ee\L	.	.	.	(>4c\	ſu-	4a\	ſu-	.	.	2.ryy	2.ryy
8C/	.	.	16b/L	.	16dd\L	.	.	.	.	.	.	.	.	.	.	.
.	.	.	16a/JJ	.	16cc\JJ	.	.	.	.	.	.	.	.	.	.	.
8D/	4 x	.	4g/	.	4b\	.	.	.	4B\	.	4g\	.	.	.	.	.
8D/	.	.	.	.	.	.	.	.	.	.	.	.	.	.	.	.
8DD/	x 3	.	4f#/	.	4a\	.	.	.	4A\)	.	4f#\	.	.	.	.	.
8DD/J	.	.	.	.	.	.	.	.	.	.	.	.	.	.	.	.
!LO:LB:g=original	!	!	!	!	!	!	!	!	!	!	!	!	!	!	!	!
=66	=66	=66	=66	=66	=66	=66	=66-	=66	=66	=66	=66	=66	=66	=66	=66	=66
4GG/	.	.	16g/LL	.	16a\LL	.	2.r	.	4B\	-i	4g\	-i	2.r	.	2.ryy	2.ryy
.	.	.	16a/	.	16cc\	.	.	.	.	.	.	.	.	.	.	.
.	.	.	16g/	.	16b\	.	.	.	.	.	.	.	.	.	.	.
.	.	.	16f#/JJ	.	16a\JJ	.	.	.	.	.	.	.	.	.	.	.
!	!	!	!	!	!LO:LB:g=original	!	!	!	!	!	!	!	!	!	!	!
!	!	!	!	!	!LO:TX:a:t=|:problem	!	!	!	!	!	!	!	!	!	!	!
4r	.	.	8g/L	.	8b\L	.	.	.	4r	.	4r	.	.	.	.	.
!	!	!	!	!	!LO:TX:a:t=|:problem	!	!	!	!	!	!	!	!	!	!	!
.	.	.	8b/	.	8dd\	.	.	.	.	.	.	.	.	.	.	.
!	!	!	!	!	!LO:TX:a:t=|:problem	!	!	!	!	!	!	!	!	!	!	!
4r	.	.	8cc/	.	8ee\	.	.	.	4r	.	4r	.	.	.	.	.
!	!	!	!	!	!LO:TX:a:t=|:problem	!	!	!	!	!	!	!	!	!	!	!
.	.	.	8a/J	.	8ff#\J	.	.	.	.	.	.	.	.	.	.	.
!	!	!	!	!	!	!	!	!	!	!	!	!	!LO:LB:g=original	!	!	!
=67	=67	=67	=67	=67	=67	=67	=67	=67	=67	=67	=67	=67	=67	=67	=67	=67
!LO:TX:a:i:t=tutti:rj	!	!	!	!LO:DY:a:rj:t=f&colon;	!	!LO:DY:a:rj:t=for&colon;	!	!	!	!	!	!	!	!	!	!
8G\L	.	.	16d/LL 16b/	f	4.gg\	f	4G\	Quis	4d\	quis	4g\	quis	4b\	quis	2.ryy	2.ryy
.	.	.	16d/ 16b/	.	.	.	.	.	.	.	.	.	.	.	.	.
8G\	.	.	16d/ 16b/	.	.	.	.	.	.	.	.	.	.	.	.	.
.	.	.	16d/JJ 16b/	.	.	.	.	.	.	.	.	.	.	.	.	.
!	!	!	!LO:LB:g=original	!	!	!	!	!	!	!	!	!	!	!	!	!
8G\	.	.	16d/LL 16b/	.	.	.	4G\	ha-	4d\	ha-	4g\	ha-	4b\	ha-	.	.
.	.	.	16d/ 16b/	.	.	.	.	.	.	.	.	.	.	.	.	.
8G\	.	.	16d/ 16b/	.	16bb\LL	.	.	.	.	.	.	.	.	.	.	.
.	.	.	16d/JJ 16b/	.	16aa\JJ	.	.	.	.	.	.	.	.	.	.	.
*	*	*	*tremolo	*	*	*	*	*	*	*	*	*	*	*	*	*
8G\	.	.	16d/ 16bLL/	.	8gg\L	.	4G\	-bi-	4d\	-bi-	4g\	-bi-	4b\	-bi-	.	.
.	.	.	16d/ 16b/	.	.	.	.	.	.	.	.	.	.	.	.	.
8G\J	.	.	16d/ 16b/	.	8gg\J	.	.	.	.	.	.	.	.	.	.	.
.	.	.	16d/ 16bJJ/	.	.	.	.	.	.	.	.	.	.	.	.	.
!	!	!	!	!	!	!	!	!	!LO:LB:g=original	!	!	!	!	!	!	!
=68	=68	=68	=68	=68	=68	=68	=68	=68	=68	=68	=68	=68	=68	=68	=68	=68
8A\L	6: 3:	.	16d/ 16ccLL/	.	8gg\L	.	8A\	-ta-	8d\	-ta-	8f#\	-ta-	8ccn\	-ta-	2.ryy	2.ryy
.	.	.	16d/ 16cc/	.	.	.	.	.	.	.	.	.	.	.	.	.
8A\	.	.	16d/ 16cc/	.	8ff#\J	.	8A\	-re	8d\	-re	8f#\	-re	8cc\	-re	.	.
.	.	.	16d/ 16ccJJ/	.	.	.	.	.	.	.	.	.	.	.	.	.
!	!	!	!	!	!	!	!LO:LB:g=original	!	!	!	!	!	!	!	!	!
8A\	.	.	16d/ 16ccLL/	.	8r	.	4A\	fa-	4d\	fa-	4f#\	fa-	4cc\	fa-	.	.
.	.	.	16d/ 16cc/	.	.	.	.	.	.	.	.	.	.	.	.	.
8A\	.	.	16d/ 16cc/	.	8ff#\	.	.	.	.	.	.	.	.	.	.	.
.	.	.	16d/ 16ccJJ/	.	.	.	.	.	.	.	.	.	.	.	.	.
8G\	x 3	.	16d/ 16bLL/	.	8gg\L	.	4G\	-cit	4d\	-cit	4g\	-cit	4b\	-cit	.	.
.	.	.	16d/ 16b/	.	.	.	.	.	.	.	.	.	.	.	.	.
8G\J	.	.	16d/ 16b/	.	16ff#\L	.	.	.	.	.	.	.	.	.	.	.
.	.	.	16d/ 16bJJ/	.	16gg\JJ	.	.	.	.	.	.	.	.	.	.	.
!	!	!	!	!	!	!	!	!	!	!	!LO:LB:g=original	!	!	!	!	!
=69	=69	=69	=69	=69	=69	=69	=69	=69	=69	=69	=69	=69	=69	=69	=69	=69
*tremolo	*	*	*	*	*	*	*	*	*	*	*	*	*	*	*	*
8F#\L	6 5	.	16d/ 16ccLL/	.	4.aa\	.	8F#\	ſte-	8d\	ſte-	8a\	ſte-	8cc\	Ste-	2.ryy	2.ryy
.	.	.	16d/ 16cc/	.	.	.	.	.	.	.	.	.	.	.	.	.
8F#\	.	.	16d/ 16cc/	.	.	.	8F#\	-ril-	8d\	-ril-	8a\	-ril-	8cc\	-ril-	.	.
.	.	.	16d/ 16ccJJ/	.	.	.	.	.	.	.	.	.	.	.	.	.
8F#\	.	.	16d/ 16ccLL/	.	.	.	4F#\	-lem	4d\	-lem	4a\	-lem	4cc\	-lem	.	.
.	.	.	16d/ 16cc/	.	.	.	.	.	.	.	.	.	.	.	.	.
8F#\	.	.	16d/ 16cc/	.	16ccc\LL	.	.	.	.	.	.	.	.	.	.	.
.	.	.	16d/ 16ccJJ/	.	16bb\JJ	.	.	.	.	.	.	.	.	.	.	.
8F#\	.	.	16d/ 16ccLL/	.	8aa\L	.	4F#\	in	4d\	in	4a\	in	4cc\	in	.	.
.	.	.	16d/ 16cc/	.	.	.	.	.	.	.	.	.	.	.	.	.
8F#\J	.	.	16d/ 16cc/	.	8aa\J	.	.	.	.	.	.	.	.	.	.	.
.	.	.	16d/ 16ccJJ/	.	.	.	.	.	.	.	.	.	.	.	.	.
*Xtremolo	*	*	*	*	*	*	*	*	*	*	*	*	*	*	*	*
=70	=70	=70	=70	=70	=70	=70	=70	=70	=70	=70	=70	=70	=70	=70	=70	=70
8G\L	.	.	16d/ 16bLL/	.	8aa\L	.	4G\	Do-	4d\	Do-	4g\	Do-	4b\	Do-	2.ryy	2.ryy
.	.	.	16d/ 16b/	.	.	.	.	.	.	.	.	.	.	.	.	.
8G\	.	.	16d/ 16b/	.	8gg\J	.	.	.	.	.	.	.	.	.	.	.
.	.	.	16d/ 16bJJ/	.	.	.	.	.	.	.	.	.	.	.	.	.
8G\	.	.	16d/ 16bLL/	.	8r	.	4G\	-mo	4d\	-mo	4g\	-mo	4b\	-mo	.	.
.	.	.	16d/ 16b/	.	.	.	.	.	.	.	.	.	.	.	.	.
8G\	.	.	16d/ 16b/	.	8gg\	.	.	.	.	.	.	.	.	.	.	.
.	.	.	16d/ 16bJJ/	.	.	.	.	.	.	.	.	.	.	.	.	.
8B\	6 x	.	16d/ 16bLL/	.	16gg\LL	.	(>4B\	Ma-	(<4d\	Ma-	(>4b\	Ma-	(>4dd\	ma-	.	.
.	.	.	16d/ 16b/	.	16aa\	.	.	.	.	.	.	.	.	.	.	.
8B\J	.	.	16d/ 16b/	.	16gg\	.	.	.	.	.	.	.	.	.	.	.
.	.	.	16d/ 16bJJ/	.	16ffn\JJ	.	.	.	.	.	.	.	.	.	.	.
=71	=71	=71	=71	=71	=71	=71	=71	=71	=71	=71	=71	=71	=71	=71	=71	=71
8c\L	.	.	16g/LL	.	8ff#\L	.	2c\)	.	2e\)	.	2cc\)	.	2ee\)	.	2.ryy	2.ryy
.	.	.	16g/	.	.	.	.	.	.	.	.	.	.	.	.	.
8c\	.	.	16g/	.	8ee\J	.	.	.	.	.	.	.	.	.	.	.
.	.	.	16g/JJ	.	.	.	.	.	.	.	.	.	.	.	.	.
!	!	!	!	!	!LO:LB:g=original	!	!	!	!	!	!	!	!	!	!	!
8c\	.	.	16g/LL	.	8r	.	.	.	.	.	.	.	.	.	.	.
.	.	.	16g/	.	.	.	.	.	.	.	.	.	.	.	.	.
8c\	.	.	16g/	.	8ee\	.	.	.	.	.	.	.	.	.	.	.
.	.	.	16g/JJ	.	.	.	.	.	.	.	.	.	.	.	.	.
8A\	6: 3:	.	16cc\LL	.	8.ff#X\L	.	4A\	-trem	4d\	-trem	4cc\	-trem	4ff#\	-trem	.	.
.	.	.	16cc\	.	.	.	.	.	.	.	.	.	.	.	.	.
8A\J	.	.	16cc\	.	.	.	.	.	.	.	.	.	.	.	.	.
.	.	.	16cc\JJ	.	32ee\LL	.	.	.	.	.	.	.	.	.	.	.
.	.	.	.	.	32ff#\JJJ	.	.	.	.	.	.	.	.	.	.	.
!LO:LB:g=original	!	!	!	!	!	!	!	!	!	!	!	!	!LO:LB:g=original	!	!	!
=72	=72	=72	=72	=72	=72	=72	=72	=72	=72	=72	=72	=72	=72	=72	=72	=72
8B\L	6: x	.	16dd\LL	.	8ff#\L	.	2B\	fi-	2d\	fi-	2b\	fi-	2gg\	fi-	2.ryy	2.ryy
.	.	.	16dd\	.	.	.	.	.	.	.	.	.	.	.	.	.
8B\	.	.	16dd\	.	8gg\J	.	.	.	.	.	.	.	.	.	.	.
.	.	.	16dd\JJ	.	.	.	.	.	.	.	.	.	.	.	.	.
8B\	.	.	16dd\LL	.	8r	.	.	.	.	.	.	.	.	.	.	.
.	.	.	16dd\	.	.	.	.	.	.	.	.	.	.	.	.	.
8B\	.	.	16dd\	.	8gg\	.	.	.	.	.	.	.	.	.	.	.
.	.	.	16dd\JJ	.	.	.	.	.	.	.	.	.	.	.	.	.
8G\	.	.	16dd\LL	.	16ff#\LL	.	4G\	-li-	4d\	-li-	4b\	-li-	4dd\	-li-	.	.
.	.	.	16dd\	.	16gg\	.	.	.	.	.	.	.	.	.	.	.
8G\J	.	.	16dd\	.	16aa\	.	.	.	.	.	.	.	.	.	.	.
.	.	.	16dd\JJ	.	16bb\JJ	.	.	.	.	.	.	.	.	.	.	.
!	!	!	!LO:LB:g=original	!	!	!	!	!	!LO:LB:g=original	!	!	!	!	!	!	!
=73	=73	=73	=73	=73	=73	=73	=73	=73	=73	=73	=73	=73	=73	=73	=73	=73
*	*	*	*Xtremolo	*	*	*	*	*	*	*	*	*	*	*	*	*
8F#\L	6 5	.	16a/LL	.	8.ccc\L	.	(>4F#\	-o-	2d\	-o-	2a\	-o-	2cc\	-o-	2.ryy	2.ryy
.	.	.	16a/	.	.	.	.	.	.	.	.	.	.	.	.	.
8F#\	.	.	16a/	.	.	.	.	.	.	.	.	.	.	.	.	.
.	.	.	16a/JJ	.	16ddd\Jk	.	.	.	.	.	.	.	.	.	.	.
*	*	*	*tremolo	*	*	*	*	*	*	*	*	*	*	*	*	*
8D\	.	.	16a/LL	.	8ccc\L	.	4D\)	.	.	.	.	.	.	.	.	.
.	.	.	16a/	.	.	.	.	.	.	.	.	.	.	.	.	.
8D\	.	.	16a/	.	8ccc\J	.	.	.	.	.	.	.	.	.	.	.
.	.	.	16a/JJ	.	.	.	.	.	.	.	.	.	.	.	.	.
8G\	.	.	16b/LL	.	16ccc\LL	.	4G\	-rum	4c\	-rum	4g\	-rum	4b\	-rum	.	.
.	.	.	16b/	.	16bb\	.	.	.	.	.	.	.	.	.	.	.
8G\J	.	.	16b/	.	16aa\	.	.	.	.	.	.	.	.	.	.	.
.	.	.	16b/JJ	.	16gg\JJ	.	.	.	.	.	.	.	.	.	.	.
*	*	*	*Xtremolo	*	*	*	*	*	*	*	*	*	*	*	*	*
!	!	!	!	!	!	!	!LO:LB:g=original	!	!	!	!LO:LB:g=original	!	!	!	!	!
=74	=74	=74	=74	=74	=74	=74	=74	=74	=74	=74	=74	=74	=74	=74	=74	=74
8c\L	6 x	.	16cc\LL	.	16aa\LL	.	4c\	lae-	4e\	lae-	4a\	lae-	4cc\	lae-	2.ryy	2.ryy
.	.	.	16dd\	.	16bb\	.	.	.	.	.	.	.	.	.	.	.
8c\	.	.	16ee\	.	16ccc\	.	.	.	.	.	.	.	.	.	.	.
.	.	.	16cc\JJ	.	16aa\JJ	.	.	.	.	.	.	.	.	.	.	.
8d\	4 x	.	4b/	.	4gg\	.	4d\	-tan-	2d\	-tan-	4g\	-tan-	4b\	-tan-	.	.
!!mixed beam:problem
!LO:TX:t=P:problem:mixed beam	!	!	!	!	!	!	!	!	!	!	!	!	!	!	!	!
8d\	.	.	.	.	.	.	.	.	.	.	.	.	.	.	.	.
8D/	x 3	.	4a/	.	4ff#\	.	4D\	.	.	.	4f#\	.	4a\	.	.	.
8D/J	.	.	.	.	.	.	.	.	.	.	.	.	.	.	.	.
=75	=75	=75	=75	=75	=75	=75	=75	=75	=75	=75	=75	=75	=75	=75	=75	=75
!LO:TX:a:i:t=Solo	!	!	!	!	!	!	!	!	!	!	!	!	!	!	!	!
4G\	.	.	4b/	.	8gg\L	.	4G\	-tem	4d\	-tem	4g\	-tem	4b\	-tem	2.ryy	2.ryy
.	.	.	.	.	16bb\L	.	.	.	.	.	.	.	.	.	.	.
.	.	.	.	.	16aa\JJ	.	.	.	.	.	.	.	.	.	.	.
4r	.	.	4r	.	8gg\L	.	4r	.	4r	.	4r	.	4r	.	.	.
.	.	.	.	.	8gg\J	.	.	.	.	.	.	.	.	.	.	.
!	!	!	!	!	!LO:LB:g=original	!	!	!	!	!	!	!	!	!	!	!
4B\	6 x	.	4g/	.	16gg\LL	.	4r	.	4r	.	4r	.	4r	.	.	.
.	.	.	.	.	16ff#\	.	.	.	.	.	.	.	.	.	.	.
.	.	.	.	.	16ee\	.	.	.	.	.	.	.	.	.	.	.
.	.	.	.	.	16dd\JJ	.	.	.	.	.	.	.	.	.	.	.
=76	=76	=76	=76	=76	=76	=76	=76	=76	=76	=76	=76	=76	=76	=76	=76	=76
4c\	6 x	.	4a/	.	8ee\L	.	0.r	.	0.r	.	0.r	.	2.r	.	2.ryy	2.ryy
.	.	.	.	.	16dd\L	.	.	.	.	.	.	.	.	.	.	.
.	.	.	.	.	16cc\JJ	.	.	.	.	.	.	.	.	.	.	.
4d\	4 x	.	8g/L	.	8b\L	.	.	.	.	.	.	.	.	.	.	.
.	.	.	8b/	.	8gg\	.	.	.	.	.	.	.	.	.	.	.
!LO:TX:b:t=Verte	!	!	!	!	!	!	!	!	!	!	!	!	!	!	!	!
4D\	x 3	.	8f#/	.	8a\	.	.	.	.	.	.	.	.	.	.	.
.	.	.	8a/J	.	8ff#\J	.	.	.	.	.	.	.	.	.	.	.
!LO:PB:g=original	!	!	!	!	!	!	!	!	!	!	!	!	!LO:PB:g=original	!	!	!
=77	=77	=77	=77	=77	=77	=77	=77-	=77	=77-	=77	=77-	=77	=77	=77	=77	=77
!	!	!LO:DY:a:rj:t=p&colon;	!	!LO:DY:a:t=p&colon;	!	!LO:DY:a:rj:t=pio&colon;	!	!	!	!	!	!	!LO:TX:a:i:t=Solo&colon;	!	!	!
8G\L	.	p	8b\L	p	2gg\	p	.	.	.	.	.	.	2gg\	glo-	2.ryy	2.ryy
8G\	.	.	8b\	.	.	.	.	.	.	.	.	.	.	.	.	.
8G\	.	.	8b\	.	.	.	.	.	.	.	.	.	.	.	.	.
8G\	.	.	8b\	.	.	.	.	.	.	.	.	.	.	.	.	.
8G\	.	.	8b\	.	16gg\LL	.	.	.	.	.	.	.	16gg\LL	-ri-	.	.
.	.	.	.	.	16ff#\	.	.	.	.	.	.	.	16ff#\JJ	.	.	.
8G\J	.	.	8b\J	.	16ee\	.	.	.	.	.	.	.	16ee\LL	-a	.	.
.	.	.	.	.	16dd\JJ	.	.	.	.	.	.	.	16dd\JJ	.	.	.
=78	=78	=78	=78	=78	=78	=78	=78-	=78	=78-	=78	=78-	=78	=78	=78	=78	=78
*tremolo	*	*	*tremolo	*	*	*	*	*	*	*	*	*	*	*	*	*
8G\L	6 4	.	8cc\L	.	8dd\L	.	.	.	.	.	.	.	8dd\L	pat-	2.ryy	2.ryy
8G\	.	.	8cc\	.	8ee\J	.	.	.	.	.	.	.	8ee\J	.	.	.
8G\	.	.	8cc\	.	8r	.	.	.	.	.	.	.	4ee\	-ri	.	.
8G\	.	.	8cc\	.	8ee\	.	.	.	.	.	.	.	.	.	.	.
8G\	.	.	8cc\	.	(>8.eeT>\L	.	.	.	.	.	.	.	4r	.	.	.
8G\J	.	.	8cc\J	.	.	.	.	.	.	.	.	.	.	.	.	.
.	.	.	.	.	32dd\LL	.	.	.	.	.	.	.	.	.	.	.
.	.	.	.	.	32ee\JJJ)	.	.	.	.	.	.	.	.	.	.	.
*	*	*	*Xtremolo	*	*	*	*	*	*	*	*	*	*	*	*	*
!	!	!	!LO:LB:g=original	!	!	!	!	!	!	!	!	!	!	!	!	!
=79	=79	=79	=79	=79	=79	=79	=79-	=79	=79-	=79	=79-	=79	=79	=79	=79	=79
8G\L	7 2	.	8a/L	fz	2ff#\	.	.	.	.	.	.	.	2ff#\	glo-	2.ryy	2.ryy
8G\	.	.	8a/	.	.	.	.	.	.	.	.	.	.	.	.	.
8G\	.	.	8a/	.	.	.	.	.	.	.	.	.	.	.	.	.
8G\	.	.	8a/	.	.	.	.	.	.	.	.	.	.	.	.	.
8G\	.	.	8a/	.	16gg\LL	.	.	.	.	.	.	.	16gg\LL	-ri-	.	.
.	.	.	.	.	16ff#\	.	.	.	.	.	.	.	16ff#\JJ	.	.	.
8G\J	.	.	8a/J	.	16ee\	.	.	.	.	.	.	.	16ee\LL	-a	.	.
.	.	.	.	.	16ff#\JJ	.	.	.	.	.	.	.	16ff#\JJ	.	.	.
=80	=80	=80	=80	=80	=80	=80	=80-	=80	=80-	=80	=80-	=80	=80	=80	=80	=80
*	*	*	*tremolo	*	*	*	*	*	*	*	*	*	*	*	*	*
8G\L	3	.	8b/L	.	8ff#\L	.	0.r	.	0.r	.	0.r	.	8ff#\	fi-	2.ryy	2.ryy
8G\	.	.	8b/	.	8gg\J	.	.	.	.	.	.	.	8gg\	-li-	.	.
8G\	.	.	8b/	.	8r	.	.	.	.	.	.	.	4gg\	-o	.	.
8G\	.	.	8b/	.	8gg\	.	.	.	.	.	.	.	.	.	.	.
!	!	!	!	!	!LO:LB:g=original	!	!	!	!	!	!	!	!	!	!	!
8G\	.	.	8b/	.	8.gg\L	.	.	.	.	.	.	.	4r	.	.	.
8G\J	.	.	8b/J	.	.	.	.	.	.	.	.	.	.	.	.	.
.	.	.	.	.	32ff#\LL	.	.	.	.	.	.	.	.	.	.	.
.	.	.	.	.	32gg\JJJ	.	.	.	.	.	.	.	.	.	.	.
=81	=81	=81	=81	=81	=81	=81	=81-	=81	=81-	=81	=81-	=81	=81	=81	=81	=81
8G\L	.	.	8b/L	.	(>4.dd\	.	.	.	.	.	.	.	2dd\	&	2.ryy	2.ryy
8G\	.	.	8b/	.	.	.	.	.	.	.	.	.	.	.	.	.
8G\	.	.	8b/	.	.	.	.	.	.	.	.	.	.	.	.	.
8G\	.	.	8b/	.	16dd\LL)	.	.	.	.	.	.	.	.	.	.	.
.	.	.	.	.	16cc\JJ	.	.	.	.	.	.	.	.	.	.	.
8G\	.	.	8b/	.	8b\L	.	.	.	.	.	.	.	8ee\L	spi-	.	.
8G\J	.	.	8b/J	.	8gg\J	.	.	.	.	.	.	.	8dd\J	.	.	.
*Xtremolo	*	*	*Xtremolo	*	*	*	*	*	*	*	*	*	*	*	*	*
!	!	!	!	!	!	!	!	!	!	!	!	!	!LO:LB:g=original	!	!	!
=82	=82	=82	=82	=82	=82	=82	=82-	=82	=82-	=82	=82-	=82	=82	=82	=82	=82
8F#\L	6: 5:	.	8a/L	.	(>4.cc\	.	.	.	.	.	.	.	4.cc\	-ri-	2.ryy	2.ryy
8F#\	.	.	8a/	.	.	.	.	.	.	.	.	.	.	.	.	.
8F#\	.	.	8a/	.	.	.	.	.	.	.	.	.	.	.	.	.
8F#\	.	.	8a/	.	16dd\LL)	.	.	.	.	.	.	.	8cc\	-tu-	.	.
.	.	.	.	.	16cc\JJ	.	.	.	.	.	.	.	.	.	.	.
8G\	.	.	8g/	.	8b\L	.	.	.	.	.	.	.	4b\	-i	.	.
8G\J	.	.	8b/J	.	8gg\J	.	.	.	.	.	.	.	.	.	.	.
=83	=83	=83	=83	=83	=83	=83	=83-	=83	=83-	=83	=83-	=83	=83	=83	=83	=83
8c\L	6: x	.	8cc/L	.	8ee\L	.	.	.	.	.	.	.	8ee\L	ſanc-	2.ryy	2.ryy
8c\	.	.	16b/L	.	16dd\L	.	.	.	.	.	.	.	16dd\L	.	.	.
.	.	.	16a/JJ	.	16cc\JJ	.	.	.	.	.	.	.	16cc\JJ	.	.	.
8d\	4 x	.	4g/	.	4b\	.	.	.	.	.	.	.	4b\	.	.	.
!!mixed beam:problem
!LO:TX:t=P:problem:mixed beam	!	!	!	!	!	!	!	!	!	!	!	!	!	!	!	!
8d\	.	.	.	.	.	.	.	.	.	.	.	.	.	.	.	.
8D\	x 3	.	4f#/	.	4a\	.	.	.	.	.	.	.	4a\	.	.	.
8D\J	.	.	.	.	.	.	.	.	.	.	.	.	.	.	.	.
!LO:LB:g=original	!	!	!	!	!	!	!	!	!	!	!	!	!	!	!	!
=84	=84	=84	=84	=84	=84	=84	=84-	=84	=84-	=84	=84-	=84	=84	=84	=84	=84
4G\	.	.	16g/LL	.	16b\LL	.	2.r	.	2.r	.	2.r	.	4b\	-to	2.ryy	2.ryy
.	.	.	16a/	.	16cc\	.	.	.	.	.	.	.	.	.	.	.
.	.	.	16g/	.	16b\	.	.	.	.	.	.	.	.	.	.	.
.	.	.	16f#/JJ	.	16a\JJ	.	.	.	.	.	.	.	.	.	.	.
4r	.	.	8g/L	.	8b\L	<	.	.	.	.	.	.	4r	.	.	.
.	.	.	16a/L	.	16cc\L	.	.	.	.	.	.	.	.	.	.	.
.	.	.	16b/JJ	.	16dd\JJ	.	.	.	.	.	.	.	.	.	.	.
4r	.	.	16cc\LL	.	16ee\LL	.	.	.	.	.	.	.	4r	.	.	.
.	.	.	16b\	.	16dd\	.	.	.	.	.	.	.	.	.	.	.
.	.	.	16cc\	.	16ee\	.	.	.	.	.	.	.	.	.	.	.
.	.	.	16a\JJ	.	16ff#\JJ	.	.	.	.	.	.	.	.	.	.	.
!	!	!	!LO:LB:g=original	!	!	!	!	!	!	!	!	!	!	!	!	!
=85	=85	=85	=85	=85	=85	=85	=85	=85	=85	=85	=85	=85	=85	=85	=85	=85
!LO:TX:a:i:t=tutti:rj	!	!	!	!LO:DY:a	!	!LO:DY:a:rj:t=for&colon;	!	!	!	!	!	!	!	!	!	!
8G\L	.	.	16d/LL 16b/	fz	4.d\ 4.b\ 4.gg\	f	8G\	ſi-	8d\	ſi-	8g\	ſi-	8b\	ſi-	2.ryy	2.ryy
.	.	.	16d/ 16b/	.	.	.	.	.	.	.	.	.	.	.	.	.
8G\	.	.	16d/ 16b/	.	.	.	8G\	-cut	8d\	-cut	8g\	-cut	8b\	-cut	.	.
.	.	.	16d/JJ 16b/	.	.	.	.	.	.	.	.	.	.	.	.	.
*	*	*	*tremolo	*	*	*	*	*	*	*	*	*	*	*	*	*
8G\	.	.	16d/ 16bLL/	.	.	.	4G\	e-	4d\	e-	4g\	e-	4b\	e-	.	.
.	.	.	16d/ 16b/	.	.	.	.	.	.	.	.	.	.	.	.	.
8G\	.	.	16d/ 16b/	.	16b\LL	.	.	.	.	.	.	.	.	.	.	.
.	.	.	16d/ 16bJJ/	.	16cc\JJ	.	.	.	.	.	.	.	.	.	.	.
8G\	.	.	16d/ 16bLL/	.	8dd\L	.	4G\	-rat	4d\	-rat	4g\	-rat	4b\	-rat	.	.
.	.	.	16d/ 16b/	.	.	.	.	.	.	.	.	.	.	.	.	.
8G\J	.	.	16d/ 16b/	.	8dd\J	.	.	.	.	.	.	.	.	.	.	.
.	.	.	16d/ 16bJJ/	.	.	.	.	.	.	.	.	.	.	.	.	.
!	!	!	!	!	!LO:LB:g=original	!	!	!	!LO:PB:g=original	!	!	!	!	!	!	!
=86	=86	=86	=86	=86	=86	=86	=86	=86	=86	=86	=86	=86	=86	=86	=86	=86
*	*	*	*^	*	*	*	*	*	*	*	*	*	*	*	*	*
*tremolo	*	*	*	*	*	*	*	*	*	*	*	*	*	*	*	*	*
8D\L	.	.	16a/LL	16f#\LL	.	8dd\L	.	8D\	in	8d\	in	8f#\	in	8a\	in	2.ryy	2.ryy
.	.	.	16a/	16f#\	.	.	.	.	.	.	.	.	.	.	.	.	.
8D\	.	.	16a/	16f#\	.	8cc\J	.	8D\	prin-	8d\	prin-	8f#\	prin-	8a\	prin-	.	.
.	.	.	16a/JJ	16f#\JJ	.	.	.	.	.	.	.	.	.	.	.	.	.
8D\	.	.	16a/LL	16f#\LL	.	8cc\L	.	4D\	-ci-	4d\	-ci-	4f#\	-ci-	4a\	-ci-	.	.
.	.	.	16a/	16f#\	.	.	.	.	.	.	.	.	.	.	.	.	.
8D\	.	.	16a/	16f#\	.	16aa\L	.	.	.	.	.	.	.	.	.	.	.
.	.	.	16a/JJ	16f#\JJ	.	16gg\JJ	.	.	.	.	.	.	.	.	.	.	.
8D\	.	.	16a/LL	16f#\LL	.	16ff#\LL	.	4D\	-pi-	4d\	-pi-	4f#\	-pi-	4a\	-pi-	.	.
.	.	.	16a/	16f#\	.	16ee\	.	.	.	.	.	.	.	.	.	.	.
8D\J	.	.	16a/	16f#\	.	16dd\	.	.	.	.	.	.	.	.	.	.	.
.	.	.	16a/JJ	16f#\JJ	.	16cc\JJ	.	.	.	.	.	.	.	.	.	.	.
*	*	*	*v	*v	*	*	*	*	*	*	*	*	*	*	*	*	*
!	!	!	!	!	!	!	!LO:LB:g=original	!	!	!	!LO:LB:g=original	!	!LO:LB:g=original	!	!	!
=87	=87	=87	=87	=87	=87	=87	=87	=87	=87	=87	=87	=87	=87	=87	=87	=87
8F#\L	6 5	.	16d/ 16aLL	.	4.d\ 4.cc\ 4.aa\	.	8F#\	-o	8d\	-o	8a\	-o	8cc\	-o	2.ryy	2.ryy
.	.	.	16d/ 16a	.	.	.	.	.	.	.	.	.	.	.	.	.
8F#\	.	.	16d/ 16a	.	.	.	8F#\	&	8d\	&	8a\	&	8cc\	&	.	.
.	.	.	16d/ 16aJJ	.	.	.	.	.	.	.	.	.	.	.	.	.
8F#\	.	.	16d/ 16aLL	.	.	.	4F#\	nunc	4d\	nunc	4a\	nunc	4cc\	nunc	.	.
.	.	.	16d/ 16a	.	.	.	.	.	.	.	.	.	.	.	.	.
8F#\	.	.	16d/ 16a	.	16a\LL	.	.	.	.	.	.	.	.	.	.	.
.	.	.	16d/ 16aJJ	.	16b\JJ	.	.	.	.	.	.	.	.	.	.	.
8F#\	.	.	16d/ 16aLL	.	8cc\L	.	4F#\	&	4d\	&	4a\	&	4cc\	&	.	.
.	.	.	16d/ 16a	.	.	.	.	.	.	.	.	.	.	.	.	.
8F#\J	.	.	16d/ 16a	.	8cc\J	.	.	.	.	.	.	.	.	.	.	.
.	.	.	16d/ 16aJJ	.	.	.	.	.	.	.	.	.	.	.	.	.
=88	=88	=88	=88	=88	=88	=88	=88	=88	=88	=88	=88	=88	=88	=88	=88	=88
8G\L	.	.	16d/LL	.	8cc\L	.	4G\	ſem-	4d\	ſem-	4g\	ſem-	4b\	ſem-	2.ryy	2.ryy
.	.	.	16d/	.	.	.	.	.	.	.	.	.	.	.	.	.
8G\	.	.	16d/	.	8b\J	.	.	.	.	.	.	.	.	.	.	.
.	.	.	16d/JJ	.	.	.	.	.	.	.	.	.	.	.	.	.
8G\	.	.	16d/LL	.	8b\L	.	4G\	-per	4d\	-per	4g\	-per	4b\	-per	.	.
.	.	.	16d/	.	.	.	.	.	.	.	.	.	.	.	.	.
8G\	.	.	16d/	.	16gg\L	.	.	.	.	.	.	.	.	.	.	.
.	.	.	16d/JJ	.	16ff#\JJ	.	.	.	.	.	.	.	.	.	.	.
8G\	.	.	16d/LL	.	16ee\LL	.	8G\	&	8d\	&	8b\	&	8dd\	&	.	.
.	.	.	16d/	.	16dd\J	.	.	.	.	.	.	.	.	.	.	.
8G\J	.	.	16d/	.	8b\J	.	8G\	in	8d\	in	8b\	in	8dd\	in	.	.
.	.	.	16d/JJ	.	.	.	.	.	.	.	.	.	.	.	.	.
*Xtremolo	*	*	*	*	*	*	*	*	*	*	*	*	*	*	*	*
=89	=89	=89	=89	=89	=89	=89	=89	=89	=89	=89	=89	=89	=89	=89	=89	=89
8C/L	6: x	.	16e/LL	.	8b/L	.	4.C/	ſae-	4.e\	ſae-	4.a\	ſae-	4.ee\	ſae-	2.ryy	2.ryy
.	.	.	16e/	.	.	.	.	.	.	.	.	.	.	.	.	.
8C/	.	.	16e/	.	8a/J	.	.	.	.	.	.	.	.	.	.	.
.	.	.	16e/JJ	.	.	.	.	.	.	.	.	.	.	.	.	.
8C/	.	.	16e/LL	.	8r	.	.	.	.	.	.	.	.	.	.	.
.	.	.	16e/	.	.	.	.	.	.	.	.	.	.	.	.	.
8C/	.	.	16e/	.	8a/	.	8C/	-cu-	8e\	-cu-	8a\	-cu-	8ee\	-cu-	.	.
.	.	.	16e/JJ	.	.	.	.	.	.	.	.	.	.	.	.	.
8D/	.	.	16f#/LL	.	(<8.aT/L	.	4D/	-la	4d\	-la	4a\	-la	4ff#\	-la	.	.
.	.	.	16f#/	.	.	.	.	.	.	.	.	.	.	.	.	.
8D/J	.	.	16f#/	.	.	.	.	.	.	.	.	.	.	.	.	.
.	.	.	16f#/JJ	.	32g/LL	.	.	.	.	.	.	.	.	.	.	.
.	.	.	.	.	32a/JJJ)	.	.	.	.	.	.	.	.	.	.	.
!	!	!	!	!	!	!	!	!	!LO:LB:g=original	!	!	!	!	!	!	!
=90	=90	=90	=90	=90	=90	=90	=90	=90	=90	=90	=90	=90	=90	=90	=90	=90
8D\L	.	.	16B/LL	.	(<8b/L	.	2F#\	ſae-	2e\	ſae-	2b\	ſae-	2gg\	ſae-	2.ryy	2.ryy
.	.	.	16B/	.	.	.	.	.	.	.	.	.	.	.	.	.
8D\	.	.	16B/	.	8g/J)	.	.	.	.	.	.	.	.	.	.	.
.	.	.	16B/JJ	.	.	.	.	.	.	.	.	.	.	.	.	.
8E\	.	.	16B/LL	.	8r	.	.	.	.	.	.	.	.	.	.	.
.	.	.	16B/	.	.	.	.	.	.	.	.	.	.	.	.	.
8E\J	.	.	16B/	.	8gg\	.	.	.	.	.	.	.	.	.	.	.
.	.	.	16B/JJ	.	.	.	.	.	.	.	.	.	.	.	.	.
!	!	!	!	!	!LO:LB:g=original	!	!	!	!	!	!	!	!	!	!	!
8BB/L	6: x	.	16g/LL	.	16gg\LL	.	4BB/	-cu-	4d\	-cu-	4b\	-cu-	4dd\	-cu-	.	.
.	.	.	16g/	.	16ff#\	.	.	.	.	.	.	.	.	.	.	.
8BB/J	.	.	16g/	.	16ee\	.	.	.	.	.	.	.	.	.	.	.
.	.	.	16g/JJ	.	16dd\JJ	.	.	.	.	.	.	.	.	.	.	.
*	*	*	*Xtremolo	*	*	*	*	*	*	*	*	*	*	*	*	*
!LO:LB:g=original	!	!	!LO:LB:g=original	!	!	!	!	!	!	!	!LO:LB:g=original	!	!	!	!	!
=91	=91	=91	=91	=91	=91	=91	=91	=91	=91	=91	=91	=91	=91	=91	=91	=91
8C\L	6 x	.	8cc\L	.	8ee\L	.	8C/	-lo-	8e\	-lo-	8cc\	-lo-	8ee\	-lo-	2.ryy	2.ryy
8C\	.	.	16b\L	.	16dd\L	.	8C/	-rum	8e\	-rum	8a\	-rum	8cc\	-rum	.	.
.	.	.	16a\JJ	.	16cc\JJ	.	.	.	.	.	.	.	.	.	.	.
!	!	!	!	!	!	!	!LO:LB:g=original	!	!	!	!	!	!LO:LB:g=original	!	!	!
8D\	4 x	.	4g/	.	4b\	.	2D\	a-	2d\	a-	(>4g\	a-	4b\	a-	.	.
!!mixed beam:problem
!LO:TX:t=P:problem:mixed beam	!	!	!	!	!	!	!	!	!	!	!	!	!	!	!	!
8D\	.	.	.	.	.	.	.	.	.	.	.	.	.	.	.	.
8DD/	3 x	.	4f#/	.	4a\	.	.	.	.	.	4f#\)	.	4a\	.	.	.
8DD/J	.	.	.	.	.	.	.	.	.	.	.	.	.	.	.	.
=92	=92	=92	=92	=92	=92	=92	=92	=92	=92	=92	=92	=92	=92	=92	=92	=92
4GG/	.	.	16g/LL	.	16b\LL	.	4G\	-men	4d\	-men	4g\	-men	4b\	-men	2.ryy	2.ryy
.	.	.	16b/	.	16dd\	.	.	.	.	.	.	.	.	.	.	.
.	.	.	16cc/	.	16cc\	.	.	.	.	.	.	.	.	.	.	.
.	.	.	16b/JJ	.	16b\JJ	.	.	.	.	.	.	.	.	.	.	.
*	*	*	*	*	*	*	*	*ij	*	*ij	*	*	*	*ij	*	*
4C/	6 5	.	8a\L	.	8a\L	.	(>4C/	a-	(>4e\	a-	(>4g\	a-	2a\	a-	.	.
.	.	.	8gg\	.	8gg\	.	.	.	.	.	.	.	.	.	.	.
4D/	.	.	8a\	.	8a\	.	4D\)	.	4d\)	.	4f#\)	.	.	.	.	.
.	.	.	8ff#\J	.	8ff#\J	.	.	.	.	.	.	.	.	.	.	.
=93	=93	=93	=93	=93	=93	=93	=93	=93	=93	=93	=93	=93	=93	=93	=93	=93
!	!	!	!	!	!	!	!	!	!	!	!LO:TX:b:t=Verte Laetatus	!	!	!	!	!
4GG/	.	.	4d\ 4b\ 4gg\	.	4d\ 4b\ 4gg\	.	2G\	-men	4d\	-men	2g\	-men	4b\	-men	2.ryy	2.ryy
4r	.	.	4r	.	4r	.	.	.	4r	.	.	.	2r	.	.	.
4r	.	.	4r	.	4r	.	4r	.	4r	.	4r	.	.	.	.	.
*	*	*	*	*	*	*	*	*Xij	*	*Xij	*	*	*	*Xij	*	*
==	==	==	==	==	==	==	==	==	==	==	==	==	==	==	==	==
*-	*-	*-	*-	*-	*-	*-	*-	*-	*-	*-	*-	*-	*-	*-	*-	*-
!!!system-decoration: [(g1)][(g2)][(g3)]g4
!!!RDF**dynam: < = "Cres:", fontstyle="italic"
!!!RDF**kern: > = above
!!!RDF**kern: < = below
!!!ENC: Tomasz Grochalski
!!!END: 2020-07-16
!!!EED: Jędrzej Mróz
!!!EST: 2022-01-13
